!!!!SEGMENT: pl-cz--iii-669--001-005_scigalski-franciszek--missa-in-b-credo.krn
!!!cenid: 18xx:1110
!!!COM: Ścigalski, Franciszek
!!!COM-rismID: pe30002948
!!!CDT: 1782/01/29-1846/09/27
!!!CNT: Polish
!!!OPR: Missa in B
!!!OTL: Credo
!!!OMV: 005
!!!PDT:
!!!AGN: Sacred; Mass
!!!YEC: Copyright 2022 Narodowy Instytut Fryderyka Chopina (https://polishscores.org)
!!!YEM: License CC-BY-4.0 (https://creativecommons.org/licenses/by/4.0)
!!!SMS-siglum: PL-CZ
!!!SMS-shelfmark: III-669
!!!SMS-shelfwork: 001-005 M
!!!SMS-variant:
!!!SMS-altvar:
!!!NIFC-rismSourceID: 300001314
!!!NIFC-rismChildID: 300001314
!!!NIFC-islandoraID: pl-cz:39833
!!!URL-pdf-islandora: https://repozytorium.nifc.pl/islandora/object/pl-cz%3A39833/datastream/PDF/view
!!!URL-scan: https://polish.musicsources.pl/pl/lokalizacje/galeria/rekopisy/6973/1 @EN{Scan on Polish Music Sources Website} @PL{Skany w portalu Dziedzictwo Muzyki Polskiej w otwartym dostępie}
!!!IIIF:
!!!ONB-nifc: UWAGA: części Mszy: Kyrie, Gloria, Qui tollis, Quoniam, Credo, Et incarnatus, Et resurrexit, Sanctus, Benedictus, Agnus Dei, Dona nobis
!!!AIN: 1 alto 1 bass 1 cello 2 clars 2 cor 1 fagot 1 flt 1 organ 1 soprn 1 tenor 1 timpa 1 tromp 1 viola 2 violn
!!!key: B-
**kern	**fba	**kern	**kern	**kern	**kern	**kern	**text	**kern	**text	**kern	**text	**kern	**text	**kern	**kern	**kern	**kern	**kern	**kern	**kern	**kern	**dynam
*group6	*	*group5	*group5	*group5	*group5	*group4	*	*group4	*	*group4	*	*group4	*	*group3	*group2	*group2	*group2	*group1	*group1	*group1	*group1	*
*part17	*	*part16	*part15	*part14	*part13	*part12	*	*part11	*	*part10	*	*part9	*	*part8	*part7	*part6	*part5	*part4	*part3	*part2	*part1	*
*staff17	*	*staff16	*staff15	*staff14	*staff13	*staff12	*	*staff11	*	*staff10	*	*staff9	*	*staff8	*staff7	*staff6	*staff5	*staff4	*staff3	*staff2	*staff1	*
*I"Organo	*	*I"Cello	*I"Alto Viola	*I"Violino 2.do	*I"Violino Primo.	*I"Baſso !	*	*I"Tenore	*	*I"Alto	*	*I"Canto	*	*I"Tympano. in B.F.	*I"Claryino Princypalo	*I"Corno Sekundos in B.	*I"Cornu Prymo in B	*I"Fagotto Obl[i]gato	*I"Clarinetto 2do in B	*I"Clarinetto 1mo in B	*I"Flauto Obbligato.	*
*I'[Org]	*	*I'[Vlc]	*I'[A-vla]	*I'[Vl 2]	*I'[Vl 1]	*I'[B]	*	*I'[T]	*	*I'[A]	*	*I'[S]	*	*I'Timp.	*I'[Clno]	*I'[Cor 2 in B]	*I'[Cor 1 in B]	*I'[Fag]	*I'[Cl 2 in B♭]	*I'[Cl 1 in B♭]	*I'[Fl]	*
*Iorgan	*	*Icello	*Iviola	*Ivioln	*Ivioln	*Ibass	*	*Itenor	*	*Ialto	*	*Isoprn	*	*Itimpa	*Itromp	*Icor	*Icor	*Ifagot	*Iclars	*Iclars	*Iflt	*
*ICklav	*	*ICstr	*ICstr	*ICstr	*ICstr	*ICvox	*	*ICvox	*	*ICvox	*	*ICvox	*	*ICidio	*ICbras	*ICbras	*ICbras	*ICww	*ICww	*ICww	*ICww	*
*IGacmp	*	*IGacmp	*IGacmp	*IGacmp	*IGacmp	*IGcoro	*	*IGcoro	*	*IGcoro	*	*IGcoro	*	*IGacmp	*IGacmp	*IGacmp	*IGacmp	*IGacmp	*IGacmp	*IGacmp	*IGacmp	*
*clefF4	*	*clefF4	*clefC3	*clefG2	*clefG2	*clefF4	*	*clefC4	*	*clefC3	*	*clefC1	*	*clefF4	*clefG2	*clefG2	*clefG2	*clefF4	*clefG2	*clefG2	*clefG2	*
*	*	*	*	*	*	*	*	*	*	*	*	*	*	*ITrd1c2	*	*ITrd1c2	*ITrd1c2	*	*ITrd1c2	*ITrd1c2	*	*
*k[b-e-]	*	*k[b-e-]	*k[b-e-]	*k[b-e-]	*k[b-e-]	*k[b-e-]	*	*k[b-e-]	*	*k[b-e-]	*	*k[b-e-]	*	*k[b-e-]	*k[b-e-]	*k[b-e-]	*k[b-e-]	*k[b-e-]	*k[b-e-]	*k[b-e-]	*k[b-e-]	*
*B-:	*	*B-:	*B-:	*B-:	*B-:	*B-:	*	*B-:	*	*B-:	*	*B-:	*	*B-:	*B-:	*B-:	*B-:	*B-:	*B-:	*B-:	*B-:	*
*M3/4	*	*M3/4	*M3/4	*M3/4	*M3/4	*M3/4	*	*M3/4	*	*M3/4	*	*M3/4	*	*M3/4	*M3/4	*M3/4	*M3/4	*M3/4	*M3/4	*M3/4	*M3/4	*
=1	=1	=1	=1	=1	=1	=1	=1	=1	=1	=1	=1	=1	=1	=1	=1	=1	=1	=1	=1	=1	=1	=1
*2\right	*	*	*2\right	*	*2\right	*2\right	*	*2\right	*	*	*	*2\right	*	*	*	*2\right	*2\right	*2\right	*2\right	*2\right	*2\right	*
!LO:TX:t=P:problem=all\right&colon; global	!	!	!LO:TX:t=P:problem=all\right&colon; global	!	!	!LO:TX:a:t=2.	!	!LO:TX:a:t=2.	!	!LO:TX:b:t=2.	!	!LO:TX:a:t=2	!	!	!	!	!	!LO:TX:t=P:problem=all\right&colon; global	!LO:TX:t=P:problem=all\right&colon; global	!	!	!
!LO:TX:a:B:t=Allegro	!	!	!LO:TX:a:B:t=Allegro	!LO:TX:a:B:t=Allegro.	!LO:TX:a:B:t=Allegro.	!LO:TX:a:B:t=allegro	!	!LO:TX:a:B:t=Allo&colon;	!	!LO:TX:a:B:t=Allegro	!	!LO:TX:a:B:t=Allegro	!	!LO:TX:a:B:t=Allegro.	!	!LO:TX:t=P:problem=all\right&colon; global	!LO:TX:a:B:t=Allogro	!LO:TX:a:B:t=Allo&colon;	!LO:TX:a:B:t=Allo.	!LO:TX:a:B:t=Allegro.	!LO:TX:a:B:t=Allegro.	!
2B-'>\	.	2.r	2b-\	2b-/	2bb-\	1.r	.	1.r	.	1.r	.	1.r	.	4BB-/	2.ryy	2b-\	2b-\	2B-\	2b-\	2bb-\	2bb-\	.
.	.	.	.	.	.	.	.	.	.	.	.	.	.	4r	.	.	.	.	.	.	.	.
4F'>\	.	.	4f\	4f/	4ff\	.	.	.	.	.	.	.	.	4FF/	.	4f/	4f/	4F\	4f/	4ff\	4ff\	.
=2	=2	=2	=2	=2	=2	=2-	=2	=2	=2	=2-	=2	=2-	=2	=2	=2	=2	=2	=2	=2	=2	=2	=2
8D'</L	.	2.r	8d\L	8d/L	8dd\L	.	.	.	.	.	.	.	.	8BB-/L	2.ryy	8d/L	8d/L	8D\L	8d/L	8dd\L	8dd\L	.
8BB-'</J	.	.	8B-\J	8B-/J	8b-\J	.	.	.	.	.	.	.	.	8BB-/J	.	8B-/J	8B-/J	8BB-\J	8B-/J	8b-\J	8b-\J	.
8BB-'</L	.	.	8B-/L	8B-/L	8b-\L	.	.	.	.	.	.	.	.	4BB-/	.	4B-/	4B-/	4BB-\	4B-/	4b-\	4b-\	.
16C'</L	.	.	16c/L	16c/L	16cc\L	.	.	.	.	.	.	.	.	.	.	.	.	.	.	.	.	.
16D'</JJ	.	.	16d/JJ	16d/JJ	16dd\JJ	.	.	.	.	.	.	.	.	.	.	.	.	.	.	.	.	.
16E-'>\LL	.	.	16e-\LL	16e-/LL	16ee-\LL	.	.	.	.	.	.	.	.	4r	.	4r	4r	4r	4r	4r	4r	.
16F'>\	.	.	16f\	16f/	16ff\	.	.	.	.	.	.	.	.	.	.	.	.	.	.	.	.	.
16G'>\	.	.	16g\	16g/	16gg\	.	.	.	.	.	.	.	.	.	.	.	.	.	.	.	.	.
16A'>\JJ	.	.	16a\JJ	16a/JJ	16aa\JJ	.	.	.	.	.	.	.	.	.	.	.	.	.	.	.	.	.
=3	=3	=3	=3	=3	=3	=3	=3	=3	=3	=3	=3	=3	=3	=3	=3	=3	=3	=3	=3	=3	=3	=3
!	!	!	!	!LO:TX:t=P:problem=all\right&colon; global	!	!LO:TX:t=P:problem=all\right&colon; global	!	!LO:TX:t=P:problem=all\right&colon; global	!	!	!	!LO:TX:a:t=P:problem=all\right&colon; global	!	!	!	!	!	!	!	!	!	!
4B-'>\	.	2.r	4b-\	16b-\LL	16bb-\LL	4B-\	Cre-	4d\	Cre-	4f\	Cre-	4dd\	Cre-	4r	2.ryy	4b-\	4dd\	4B-\	4f/	4dd\	4bb-\	.
.	.	.	.	16dd\	16ddd\	.	.	.	.	.	.	.	.	.	.	.	.	.	.	.	.	.
.	.	.	.	16f\	16ff\	.	.	.	.	.	.	.	.	.	.	.	.	.	.	.	.	.
.	.	.	.	16f\JJ	16ff\JJ	.	.	.	.	.	.	.	.	.	.	.	.	.	.	.	.	.
4D\	8	.	4f\	4f/ 4dd/	16ff\LL	4B-\	-do	4d\	-do	4f\	-do	4dd\	-do	4BB-/	.	4b-\	4dd\	4d\	8f/L	4dd\	4ddd\	.
.	.	.	.	.	16bb-\	.	.	.	.	.	.	.	.	.	.	.	.	.	.	.	.	.
.	.	.	.	.	16dd\	.	.	.	.	.	.	.	.	.	.	.	.	.	8f/J	.	.	.
.	.	.	.	.	16dd\JJ	.	.	.	.	.	.	.	.	.	.	.	.	.	.	.	.	.
4F\	5	.	4f\	4f/ 4ee-/	16dd\LL	4F\	in	4e-\	in	4e-\	in	4cc\	in	4FF/	.	4f/	4cc\	4c\	4e-/	4cc\	4ccc\	.
.	.	.	.	.	16cc\	.	.	.	.	.	.	.	.	.	.	.	.	.	.	.	.	.
.	.	.	.	.	16ff\	.	.	.	.	.	.	.	.	.	.	.	.	.	.	.	.	.
.	.	.	.	.	16a\JJ	.	.	.	.	.	.	.	.	.	.	.	.	.	.	.	.	.
=4	=4	=4	=4	=4	=4	=4	=4	=4	=4	=4	=4	=4	=4	=4	=4	=4	=4	=4	=4	=4	=4	=4
!!mixed beam:problem
!	!	!	!	!LO:TX:t=P:problem=mixed beam	!	!	!	!	!	!	!	!	!	!	!	!	!	!	!	!	!	!
8BB-'</L	.	2.r	8B-/L	8f\L 8dd\	8b-\L	4D\	u-	4d\	U-	4d\	u-	4b-\	u-	8BB-/L	2.ryy	8d/L	4b-\	8B-\L	8d/L	8b-\L	8bb-\L	.
8BB-'</J	.	.	8B-/J	8B-/J	8b-\J	.	.	.	.	.	.	.	.	8BB-/J	.	8B-/J	.	8B-\J	8B-/J	8b-\J	8bb-\J	.
!	!	!	!	!LO:LB:g=original	!LO:LB:g=original	!	!	!	!	!	!	!	!	!	!	!	!	!	!	!	!	!
8BB-'</L	.	.	8B-/L	8B-/L	8b-\L	4BB-\	-num	4d\	-num	4d\	-num	4b-\	-num	4BB-/	.	4B-/	4b-\	4B-\	4B-/	4b-\	4bb-\	.
16C'</L	.	.	16c/L	16c/L	16cc\L	.	.	.	.	.	.	.	.	.	.	.	.	.	.	.	.	.
16D'</JJ	.	.	16d/JJ	16d/JJ	16dd\JJ	.	.	.	.	.	.	.	.	.	.	.	.	.	.	.	.	.
16E-'>\LL	.	.	16e-\LL	16e-/LL	16ee-\LL	4r	.	4r	.	4r	.	4r	.	4r	.	4r	4r	4r	4r	4r	4r	.
16F'>\	.	.	16f\	16f/	16ff\	.	.	.	.	.	.	.	.	.	.	.	.	.	.	.	.	.
16G'>\	.	.	16g\	16g/	16gg\	.	.	.	.	.	.	.	.	.	.	.	.	.	.	.	.	.
16A'>\JJ	.	.	16a\JJ	16a/JJ	16aa\JJ	.	.	.	.	.	.	.	.	.	.	.	.	.	.	.	.	.
!	!	!	!LO:LB:g=original	!	!	!	!	!	!	!	!	!	!	!	!	!	!	!LO:LB:g=original	!	!	!	!
=5	=5	=5	=5	=5	=5	=5	=5	=5	=5	=5	=5	=5	=5	=5	=5	=5	=5	=5	=5	=5	=5	=5
!	!	!	!	!	!	!	!	!	!	!	!	!	!	!	!	!	!LO:TX:a:t=P:problem=takty 5-6 oznaczone znakiem repetycji	!	!	!	!	!
4B-'>\	.	2.r	4b-\	16b-\LL	16bb-\LL	4B-\	in	4d\	in	4f\	in	4dd\	in	4r	2.ryy	4b-\	4dd\yy	4B-\	4f/	4dd\	4bb-\	.
.	.	.	.	16dd\	16ddd\	.	.	.	.	.	.	.	.	.	.	.	.	.	.	.	.	.
.	.	.	.	16f\	16ff\	.	.	.	.	.	.	.	.	.	.	.	.	.	.	.	.	.
.	.	.	.	16f\JJ	16ff\JJ	.	.	.	.	.	.	.	.	.	.	.	.	.	.	.	.	.
4D\	8	.	4f\	4f/ 4dd/	16ff\LL	4B-\	u-	4d\	u-	4f\	u-	4dd\	u-	4BB-/	.	4b-\	4dd\yy	4d\	8f/L	4dd\	4ddd\	.
.	.	.	.	.	16bb-\	.	.	.	.	.	.	.	.	.	.	.	.	.	.	.	.	.
.	.	.	.	.	16dd\	.	.	.	.	.	.	.	.	.	.	.	.	.	8f/J	.	.	.
.	.	.	.	.	16dd\JJ	.	.	.	.	.	.	.	.	.	.	.	.	.	.	.	.	.
4F\	5	.	4f\	4f/ 4ee-/	16dd\LL	4F\	-num	4e-\	-num	4e-\	-num	4cc\	-num	4FF/	.	4f/	4cc\yy	4c\	4e-/	4cc\	4ccc\	.
.	.	.	.	.	16cc\	.	.	.	.	.	.	.	.	.	.	.	.	.	.	.	.	.
.	.	.	.	.	16ff\	.	.	.	.	.	.	.	.	.	.	.	.	.	.	.	.	.
.	.	.	.	.	16a\JJ	.	.	.	.	.	.	.	.	.	.	.	.	.	.	.	.	.
!LO:PB:g=original	!	!	!	!	!	!	!	!	!	!	!	!	!	!	!	!	!	!	!LO:LB:g=original	!	!	!
=6	=6	=6	=6	=6	=6	=6	=6	=6	=6	=6	=6	=6	=6	=6	=6	=6	=6	=6	=6	=6	=6	=6
!	!	!	!	!	!	!	!	!	!	!	!	!	!	!	!	!LO:N:vis=8	!	!	!	!	!	!
4B-'>\	.	2.r	4B-/	4f/ 4dd/	4b-\	4D\	de-	4d\	de-	4d\	De-	4b-\	de-	4BB-/	2.ryy	4d/	4b-\yy	4B-\	4d/	4b-\	4bb-\	.
!	!	!	!	!	!	!	!	!	!	!	!	!	!	!	!	!LO:N:vis=8	!	!	!	!	!	!
4BB-'</	.	.	4B-/	4B-/	4b-\	4BB-/	-um	4d\	-um	4d\	-um	4b-\	-um	4BB-/	.	4B-/	4b-\yy	4B-\	4B-/	4b-\	4bb-\	.
4B-~>\	.	.	4r	4r	4r	4B-\	fac-	4r	.	4r	.	4r	.	4r	.	4r	4ryy	4B-\	4r	4r	4r	.
!	!	!	!	!	!	!	!	!	!	!LO:LB:g=original	!	!	!	!	!	!	!	!	!	!	!	!
=7	=7	=7	=7	=7	=7	=7	=7	=7	=7	=7	=7	=7	=7	=7	=7	=7	=7	=7	=7	=7	=7	=7
!	!	!	!	!	!	!	!	!	!	!	!	!	!	!LO:TX:a:t=2.	!	!LO:TX:a:t=2	!	!	!	!	!	!
4A\	.	2.r	4r	4r	4r	(>4A\	-to-	4r	.	4r	.	4r	.	1.r	2.ryy	1.r	1.r	4A\	4r	4r	4r	.
4B-\	.	.	4r	4r	4r	4B-\	.	4r	.	4r	.	4r	.	.	.	.	.	4B-\	4r	4r	4r	.
4A-X\	4	.	4f\	4b-\	4dd\	4A-X\)	rem	4B-\	fac-	4b-\	Fac-	4dd\	fac-	.	.	.	.	4d\	4a\	4dd\	4ddd\	.
!	!	!	!	!	!	!LO:LB:g=original	!	!	!	!	!	!	!	!	!	!	!	!	!	!	!	!
=8	=8	=8	=8	=8	=8	=8	=8	=8	=8	=8	=8	=8	=8	=8-	=8	=8-	=8-	=8	=8	=8	=8	=8
4G\	5	2.r	4e-\	4cc\	4ee-\	4G\	Cae-	2e-\	-to-	4cc\	-to-	4ee-\	-to-	.	2.ryy	.	.	4e-\	4cc\	4ee-\	4eee-\	.
4F\	8	.	4f\	4dd\	4ff\	4F\	-li	.	.	4dd\	.	4ff\	.	.	.	.	.	4f\	4dd\	4ff\	4fff\	.
4E-\	10	.	4g\	4ee-\	4gg\	4E-\	et	4e-\	-rem	4ee-\	-rem	4gg\	-rem	.	.	.	.	4g\	4ee-\	4gg\	4ggg\	.
!	!	!	!	!	!	!	!	!LO:LB:g=original	!	!	!	!	!	!	!	!LO:LB:g=original	!	!	!	!LO:LB:g=original	!LO:LB:g=original	!
=9	=9	=9	=9	=9	=9	=9	=9	=9	=9	=9	=9	=9	=9	=9	=9	=9	=9	=9	=9	=9	=9	=9
!	!	!	!	!	!	!	!LO:MO:P=ter-	!	!LO:MO:P=coe- lub ce-	!	!	!	!	!	!	!	!	!	!	!	!	!
4F\	8	2.r	4f\	8.dd\L	8.ff\L	4F\	tae-	4f\	cee-	8.dd\L	coe-	8.ff\L	ce-	4r	2.ryy	4r	4r	4f\	4dd\	4ff\	8.fff\L	.
!	!	!	!	!	!	!	!	!	!	!	!	!LO:N:vis=8	!	!	!	!	!	!	!	!	!	!
.	.	.	.	16b-\Jk	16dd\Jk	.	.	.	.	16b-\Jk	.	16dd\Jk	.	.	.	.	.	.	.	.	16ddd\Jk	.
!!mixed beam:problem
!	!	!	!	!	!LO:TX:t=P:problem=mixed beam	!	!	!	!	!	!	!	!	!	!	!	!	!	!	!	!	!
4F\	6	.	4f\	8f/L	8b-\L	4F\	-ra	4f\	-li	4f\	-li	4b-\	-li	4BB-/	.	4b-\	4dd\	4d\	4dd\	4bb-\	8bb-\L	.
.	.	.	.	8f/	8dd\	.	.	.	.	.	.	.	.	.	.	.	.	.	.	.	8ddd\	.
!	!	!	!	!LO:SIC:v:s:t=8e-/	!	!	!	!	!	!	!	!	!	!	!	!	!	!	!	!	!	!
4F\	5	.	4F/	8en/	8f/	4F\	et	4f\	et	4e-\	et	4cc\	et	4FF/	.	4f/	4cc\	4c\	4cc\	4aa\	8ff\	.
.	.	.	.	8e-X/J	8a/J	.	.	.	.	.	.	.	.	.	.	.	.	.	.	.	8aa\J	.
!	!	!	!	!	!LO:LB:g=original	!	!	!	!	!	!	!	!	!LO:LB:g=original	!	!	!LO:LB:g=original	!	!	!	!	!
=10	=10	=10	=10	=10	=10	=10	=10	=10	=10	=10	=10	=10	=10	=10	=10	=10	=10	=10	=10	=10	=10	=10
!	!	!	!	!	!	!	!	!	!	!	!	!	!	!	!	!	!	!	!	!	!LO:TX:a:t=P:problem=takty 10-13 oznaczone znakiem repetycji	!
4BB-'</	.	2.r	4B-/	4d/	4b-\	4BB-/	ter-	4f\	ter-	4d\	ter-	4b-\	ter-	4BB-/	2.ryy	4d/	4b-\	4B-\	4dd\	4bb-\	4bb-\yy	.
4B-'>\	.	.	4B-/	4d/	4b-\	4BB-/	-ra	4f\	-re	4d\	-ra	4b-\	-ra	4BB-/	.	4B-/	4b-\	4B-\	4dd\	4bb-\	4bb-\yy	.
4B-'>\	.	.	4r	4r	4r	4B-\	fac-	4r	.	4r	.	4r	.	4r	.	4r	4r	4B-\	4r	4r	4ryy	.
!	!	!	!	!LO:LB:g=original	!	!	!	!	!	!LO:PB:g=original	!	!LO:LB:g=original	!	!	!	!	!	!	!	!	!	!
=11	=11	=11	=11	=11	=11	=11	=11	=11	=11	=11	=11	=11	=11	=11	=11	=11	=11	=11	=11	=11	=11	=11
!	!	!	!	!	!	!	!	!	!	!	!	!	!	!LO:TX:a:t=2.	!	!LO:TX:a:t=2	!	!	!	!	!	!
4A'>\	.	2.r	4r	4r	4r	(>4A\	-to-	4r	.	4r	.	4r	.	1.r	2.ryy	1.r	1.r	4A\	4r	4r	4ryy	.
4B-'>\	.	.	4r	4r	4r	4B-\)	.	4r	.	4r	.	4r	.	.	.	.	.	4B-\	4r	4r	4ryy	.
4A-X\	4	.	4f\	4b-\	4dd\	4A-X\	-rem	4B-\	fa-	4b-\	fa-	4dd\	fac-	.	.	.	.	4d\	4b-\	4dd\	4ddd\yy	.
!	!	!	!	!	!	!	!	!	!	!	!	!	!	!	!	!	!	!LO:LB:g=original	!	!	!	!
=12	=12	=12	=12	=12	=12	=12	=12	=12	=12	=12	=12	=12	=12	=12-	=12	=12-	=12-	=12	=12	=12	=12	=12
4G\	6	2.r	4e-\	4cc\	4ee-\	4G\	fac-	4e-\	-cto-	4cc\	-cto-	4ee-\	-to-	.	2.ryy	.	.	4e-\	4cc\	4ee-\	4eee-\yy	.
4F\	8	.	4f\	4dd\	4ff\	4F\	-to-	4e-\	-rem	4dd\	-rem	4ff\	-rem	.	.	.	.	4f\	4dd\	4ff\	4fff\yy	.
4E-\	10	.	4g\	4ee-\	4gg\	4E-\	-rem	4e-\	ce-	4ee-\	cae-	4gg\	cae-	.	.	.	.	4g\	4ee-\	4gg\	4ggg\yy	.
=13	=13	=13	=13	=13	=13	=13	=13	=13	=13	=13	=13	=13	=13	=13	=13	=13	=13	=13	=13	=13	=13	=13
4F\	8	2.r	4f\	8.dd\L	8.ff\L	8.F\	cae-	8.f\	-li	8.dd\	-li	8.ff\	-li	4r	2.ryy	4r	4r	4f\	4dd\	4ff\	8.fff\Lyy	.
.	.	.	.	16b-\Jk	16dd\Jk	16F\	-li	16f\	et	16b-\	et	16dd\	et	.	.	.	.	.	.	.	16ddd\Jkyy	.
!!mixed beam:problem
!	!	!	!	!	!LO:TX:t=P:problem=mixed beam	!	!	!	!	!	!	!	!	!	!	!	!	!	!	!	!	!
4F\	6	.	4f\	8f/L	8b-\L	4F\	et	4f\	ter-	4f\	ter-	4b-\	ter-	4BB-/	.	4b-\	4dd\	4d\	4dd\	4bb-\	8bb-\Lyy	.
.	.	.	.	8f/	8dd\	.	.	.	.	.	.	.	.	.	.	.	.	.	.	.	8ddd\yy	.
!	!	!	!	!LO:SIC:v:s:t=8e-/	!	!	!	!	!	!	!	!	!	!	!	!	!	!	!	!	!	!
4F\	5	.	4F/	8en/	8f/	4F\	ter-	4f\	-rae	4a\	-ra	4cc\	-rae	4FF/	.	4f/	4cc\	4c\	4cc\	4aa\	8ff\yy	.
.	.	.	.	8e-X/J	8a/J	.	.	.	.	.	.	.	.	.	.	.	.	.	.	.	8aa\Jyy	.
!	!	!	!LO:LB:g=original	!	!	!	!	!	!	!	!	!	!	!	!	!	!	!	!LO:LB:g=original	!	!	!
=14	=14	=14	=14	=14	=14	=14	=14	=14	=14	=14	=14	=14	=14	=14	=14	=14	=14	=14	=14	=14	=14	=14
*	*	*	*	*	*	*	*	*	*	*2\right	*	*	*	*	*	*	*	*	*	*	*	*
!!mixed beam:problem
!LO:TX:t=P:problem=mixed beam	!	!	!LO:TX:t=P:problem=mixed beam	!	!	!	!	!	!	!	!	!	!	!	!	!	!	!	!	!	!	!
8BB-/L	3	2.r	8B-/L	8d/L	8b-\L	2B-\	-ra	2d\	vi-	2b-\	vi-	2dd\	vi-	8BB-/L	2.ryy	8d/L	8b-\L	8d\L	8dd\L	8bb-\L	8bb-\L	.
8B-\J	.	.	8b-\J	8f/J 8dd/	8b-\J	.	.	.	.	.	.	.	.	8BB-/J	.	8d/J	8b-\J	8d\J	8dd\J	8bb-\J	8bb-\J	.
4B-\	.	.	4b-\	4f/ 4dd/	16b-\LL	.	.	.	.	.	.	.	.	4BB-/	.	4d/	4b-\	4d\	4dd\	4bb-\	4bb-\	.
.	.	.	.	.	16cc\	.	.	.	.	.	.	.	.	.	.	.	.	.	.	.	.	.
.	.	.	.	.	16dd\	.	.	.	.	.	.	.	.	.	.	.	.	.	.	.	.	.
.	.	.	.	.	16cc\JJ	.	.	.	.	.	.	.	.	.	.	.	.	.	.	.	.	.
4r	.	.	4r	4r	16b-\LL	4B-\	vi-	4d\	-si-	4b-\	-si-	4dd\	-si-	4r	.	4r	4r	4r	4r	4r	4r	.
.	.	.	.	.	16cc\	.	.	.	.	.	.	.	.	.	.	.	.	.	.	.	.	.
.	.	.	.	.	16dd\	.	.	.	.	.	.	.	.	.	.	.	.	.	.	.	.	.
.	.	.	.	.	16een\JJ	.	.	.	.	.	.	.	.	.	.	.	.	.	.	.	.	.
!LO:LB:g=original	!	!	!	!	!	!LO:LB:g=original	!	!	!	!	!	!	!	!	!	!	!	!	!	!	!	!
=15	=15	=15	=15	=15	=15	=15	=15	=15	=15	=15	=15	=15	=15	=15	=15	=15	=15	=15	=15	=15	=15	=15
!!mixed beam:problem
!LO:TX:t=P:problem=mixed beam	!	!	!LO:TX:t=P:problem=mixed beam	!	!	!	!	!	!	!	!	!	!	!	!	!	!	!	!	!	!	!
8FF/L	5 3	2.r	8F/L	8f/L 8cc/	8ff\L	4.F\	-si-	4.f\	-bi-	4.a\	-bi-	4.cc\	-bi-	8FF/L	2.ryy	8f/L	8cc\L	8c\L	8cc\L	8aa\L	8ccc\L	.
8F\J	.	.	8f\J	8f/J 8cc/	8ff\J	.	.	.	.	.	.	.	.	8FF/J	.	8f/J	8cc\J	8c\J	8cc\J	8aa\J	8ccc\J	.
4F\	.	.	4f\	4f/ 4cc/	16ff\LL	.	.	.	.	.	.	.	.	4FF/	.	4f/	4cc\	4c\	4cc\	4aa\	4ccc\	.
.	.	.	.	.	16gg\	.	.	.	.	.	.	.	.	.	.	.	.	.	.	.	.	.
.	.	.	.	.	16aa\	8F\	-bi-	8f\	-li-	8a\	-li-	8b-\	-li-	.	.	.	.	.	.	.	.	.
.	.	.	.	.	16gg\JJ	.	.	.	.	.	.	.	.	.	.	.	.	.	.	.	.	.
!	!	!	!	!	!	!LO:TX:t=P:problem=za mało nut w stosunku do sylab	!	!	!	!	!	!	!	!	!	!	!	!	!	!	!	!
4r	.	.	4r	4r	16ff\LL	4F\	-lium	4f\	-um	4a\	-um	4cc\	-um	4r	.	4r	4r	4r	4r	4r	4r	.
.	.	.	.	.	16gg\	.	.	.	.	.	.	.	.	.	.	.	.	.	.	.	.	.
.	.	.	.	.	16aa\	.	.	.	.	.	.	.	.	.	.	.	.	.	.	.	.	.
.	.	.	.	.	16ff\JJ	.	.	.	.	.	.	.	.	.	.	.	.	.	.	.	.	.
!	!	!	!	!	!LO:LB:g=original	!	!	!	!	!	!	!	!	!	!	!	!	!	!	!	!	!
=16	=16	=16	=16	=16	=16	=16	=16	=16	=16	=16	=16	=16	=16	=16	=16	=16	=16	=16	=16	=16	=16	=16
!	!	!	!	!	!	!	!	!	!	!	!	!	!	!LO:TX:a:t=1.	!	!	!	!	!	!	!	!
8C\L	7 X	2.r	8c\L	16b-\LL	16bb-\LL	4.C/	om-	4.c\	om-	4.g\	om-	4.b-\	om-	2.r	2.ryy	2.cc\	2.cc\	2.B-\	2.eeX\	2.bb-\	2.ccc\	.
.	.	.	.	16cc\	16gg\	.	.	.	.	.	.	.	.	.	.	.	.	.	.	.	.	.
8D-X\	.	.	8d-X\	16cc\	16gg\	.	.	.	.	.	.	.	.	.	.	.	.	.	.	.	.	.
.	.	.	.	16cc\JJ	16een\JJ	.	.	.	.	.	.	.	.	.	.	.	.	.	.	.	.	.
8C\	.	.	8c\	16b-\LL	16ee\LL	.	.	.	.	.	.	.	.	.	.	.	.	.	.	.	.	.
.	.	.	.	16cc\	16dd-X\	.	.	.	.	.	.	.	.	.	.	.	.	.	.	.	.	.
8C\	.	.	8c\	16cc\	16dd-\	8C/	-ni-	8c\	-ni-	8g\	-ni-	8b-\	-ni-	.	.	.	.	.	.	.	.	.
.	.	.	.	16cc\JJ	16cc\JJ	.	.	.	.	.	.	.	.	.	.	.	.	.	.	.	.	.
!	!	!	!	!LO:LB:g=original	!	!	!	!	!	!	!	!	!	!	!	!	!	!	!	!	!	!
8En\	.	.	8en\	16b-\LL	16cc\LL	4En\	-um	4c\	-um	4g\	-um	4b-\	-um	.	.	.	.	.	.	.	.	.
.	.	.	.	16cc\	16dd-\	.	.	.	.	.	.	.	.	.	.	.	.	.	.	.	.	.
8E\J	.	.	8e\J	16cc\	16cc\	.	.	.	.	.	.	.	.	.	.	.	.	.	.	.	.	.
.	.	.	.	16cc\JJ	16b-\JJ	.	.	.	.	.	.	.	.	.	.	.	.	.	.	.	.	.
!	!	!	!	!	!	!	!	!	!	!LO:LB:g=original	!	!	!	!	!	!	!	!	!	!	!	!
=17	=17	=17	=17	=17	=17	=17	=17	=17	=17	=17	=17	=17	=17	=17	=17	=17	=17	=17	=17	=17	=17	=17
*tremolo	*	*	*tremolo	*	*	*	*	*	*	*	*	*	*	*	*	*	*	*	*	*	*	*
8F\L	X 3	2.r	8f\L	16a\LL	16a\LL	8F\	et	8c\	et	8f\	et	8a\	et	4FF/	2.ryy	2.f/	2.cc\	2.A\	2.ff\	2.aa\	2.ccc\	.
.	.	.	.	16cc\	16cc\	.	.	.	.	.	.	.	.	.	.	.	.	.	.	.	.	.
8F\	.	.	8f\	16cc\	16ff\	8F\	in	8c\	in	8f\	in	8a\	in	.	.	.	.	.	.	.	.	.
.	.	.	.	16cc\JJ	16aa\JJ	.	.	.	.	.	.	.	.	.	.	.	.	.	.	.	.	.
*	*	*	*	*rep	*	*	*	*	*	*	*	*	*	*	*	*	*	*	*	*	*	*
8F\	.	.	8f\	16a\LL	16gg\LL	4F\	vi-	4c\	vi-	4f\	vi-	4a\	vi-	8r	.	.	.	.	.	.	.	.
.	.	.	.	16cc\	16ff\	.	.	.	.	.	.	.	.	.	.	.	.	.	.	.	.	.
8F\	.	.	8f\	16cc\	16een\	.	.	.	.	.	.	.	.	8FF/L	.	.	.	.	.	.	.	.
.	.	.	.	16cc\JJ	16ff\JJ	.	.	.	.	.	.	.	.	.	.	.	.	.	.	.	.	.
*	*	*	*	*Xrep	*	*	*	*	*	*	*	*	*	*	*	*	*	*	*	*	*	*
*	*	*	*	*rep	*	*	*	*	*	*	*	*	*	*	*	*	*	*	*	*	*	*
8F\	.	.	8f\	16a\LL	16ee\LL	4F\	-si-	4c\	-si-	4f\	-si-	4a\	-si-	8FF/	.	.	.	.	.	.	.	.
.	.	.	.	16cc\	16ff\	.	.	.	.	.	.	.	.	.	.	.	.	.	.	.	.	.
8F\J	.	.	8f\J	16cc\	16gg\	.	.	.	.	.	.	.	.	8FF/J	.	.	.	.	.	.	.	.
*	*	*	*	*Xrep	*	*	*	*	*	*	*	*	*	*	*	*	*	*	*	*	*	*
.	.	.	.	16cc\JJyy	16aa\JJ	.	.	.	.	.	.	.	.	.	.	.	.	.	.	.	.	.
*Xtremolo	*	*	*Xtremolo	*	*	*	*	*	*	*	*	*	*	*	*	*	*	*	*	*	*	*
!	!	!	!	!	!	!	!	!LO:LB:g=original	!	!	!	!	!	!	!	!	!	!	!	!	!	!
=18	=18	=18	=18	=18	=18	=18	=18	=18	=18	=18	=18	=18	=18	=18	=18	=18	=18	=18	=18	=18	=18	=18
!	!	!	!	!	!	!	!	!	!	!	!	!	!	!LO:TX:a:t=1.	!	!	!	!	!	!	!	!
8C\L	7 X	2.r	8c\L	16b-\LL	16bb-\LL	2C/	-bi-	2c\	-bi-	2g\	-bi-	2b-\	-bi-	2.r	2.ryy	2.cc\	2.cc\	2.B-\	2.eeX\	2.gg\	2.ccc\	.
.	.	.	.	16cc\	16gg\	.	.	.	.	.	.	.	.	.	.	.	.	.	.	.	.	.
8D-X\	.	.	8d-X\	16cc\	16gg\	.	.	.	.	.	.	.	.	.	.	.	.	.	.	.	.	.
.	.	.	.	16cc\JJ	16een\JJ	.	.	.	.	.	.	.	.	.	.	.	.	.	.	.	.	.
*	*	*	*	*rep	*	*	*	*	*	*	*	*	*	*	*	*	*	*	*	*	*	*
8C\	.	.	8c\	16b-\LL	16ee\LL	.	.	.	.	.	.	.	.	.	.	.	.	.	.	.	.	.
.	.	.	.	16cc\	16dd-X\	.	.	.	.	.	.	.	.	.	.	.	.	.	.	.	.	.
8C\	.	.	8c\	16cc\	16dd-\	.	.	.	.	.	.	.	.	.	.	.	.	.	.	.	.	.
.	.	.	.	16cc\JJ	16cc\JJ	.	.	.	.	.	.	.	.	.	.	.	.	.	.	.	.	.
*	*	*	*	*Xrep	*	*	*	*	*	*	*	*	*	*	*	*	*	*	*	*	*	*
*	*	*	*	*rep	*	*	*	*	*	*	*	*	*	*	*	*	*	*	*	*	*	*
8En\	.	.	8en\	16b-\LL	16cc\LL	4En\	-li-	4c\	-li-	4g\	-li-	4b-\	-li-	.	.	.	.	.	.	.	.	.
.	.	.	.	16cc\	16dd-\	.	.	.	.	.	.	.	.	.	.	.	.	.	.	.	.	.
8E\J	.	.	8e\J	16cc\	16cc\	.	.	.	.	.	.	.	.	.	.	.	.	.	.	.	.	.
*	*	*	*	*Xrep	*	*	*	*	*	*	*	*	*	*	*	*	*	*	*	*	*	*
.	.	.	.	16cc\JJyy	16b-\JJ	.	.	.	.	.	.	.	.	.	.	.	.	.	.	.	.	.
=19	=19	=19	=19	=19	=19	=19	=19	=19	=19	=19	=19	=19	=19	=19	=19	=19	=19	=19	=19	=19	=19	=19
4F\	X 3	2.r	4f\	4f/	16a\LL 16ff\	4F\	-um	4c\	-um	4f\	-um	4a\	-um	4FF/	2.ryy	4f/	4cc\	4A\	4ff\	4aa\	4fff\	.
.	.	.	.	.	16f\	.	.	.	.	.	.	.	.	.	.	.	.	.	.	.	.	.
.	.	.	.	.	16g\	.	.	.	.	.	.	.	.	.	.	.	.	.	.	.	.	.
.	.	.	.	.	16a\JJ	.	.	.	.	.	.	.	.	.	.	.	.	.	.	.	.	.
!	!	!	!	!	!LO:LB:g=original	!	!	!	!	!	!	!	!	!	!	!	!	!	!	!	!	!
4FF/	.	.	4F/	8f/L	16b-\LL	4r	.	4r	.	4r	.	4r	.	4FF/	.	4f/	4cc\	4A\	4ff\	4aa\	4ff\	.
.	.	.	.	.	16a\	.	.	.	.	.	.	.	.	.	.	.	.	.	.	.	.	.
.	.	.	.	16g/L	16b-\	.	.	.	.	.	.	.	.	.	.	.	.	.	.	.	.	.
.	.	.	.	16a/JJ	16cc\JJ	.	.	.	.	.	.	.	.	.	.	.	.	.	.	.	.	.
4r	.	.	4r	16b-\LL	16ddn\LL	4r	.	4r	.	4r	.	4r	.	4r	.	4r	4r	4r	4r	4r	4r	.
.	.	.	.	16cc\	16een\	.	.	.	.	.	.	.	.	.	.	.	.	.	.	.	.	.
.	.	.	.	16dd\	16ff\	.	.	.	.	.	.	.	.	.	.	.	.	.	.	.	.	.
.	.	.	.	16een\JJ	16gg\JJ	.	.	.	.	.	.	.	.	.	.	.	.	.	.	.	.	.
!	!	!	!LO:LB:g=original	!	!	!	!	!	!	!	!	!	!	!	!	!	!	!LO:LB:g=original	!	!	!	!
=20	=20	=20	=20	=20	=20	=20	=20	=20	=20	=20	=20	=20	=20	=20	=20	=20	=20	=20	=20	=20	=20	=20
*tremolo	*	*	*tremolo	*	*	*	*	*	*	*	*	*	*	*	*	*	*	*	*	*	*	*
!	!	!	!	!	!	!	!	!	!	!	!	!	!	!LO:TX:a:t=5.	!	!LO:TX:a:t=4	!	!LO:TX:a:t=4	!LO:TX:a:t=4	!LO:TX:a:t=4	!LO:TX:a:t=4.	!
8F\L	X 3	2.r	8f\L	8ff\	8aa\	2F\	et	2f\	et	2f\	et	2aa\	et	0.r	2.ryy	0.r	0.r	0.r	0.r	0.r	0.r	.
8F\	.	.	8f\	4ff\	4aa\	.	.	.	.	.	.	.	.	.	.	.	.	.	.	.	.	.
8F\	.	.	8f\	.	.	.	.	.	.	.	.	.	.	.	.	.	.	.	.	.	.	.
8F\J	.	.	8f\J	8ff\	8aa\	.	.	.	.	.	.	.	.	.	.	.	.	.	.	.	.	.
*Xtremolo	*	*	*Xtremolo	*	*	*	*	*	*	*	*	*	*	*	*	*	*	*	*	*	*	*
8c#X\L	X 4	.	8cc#X\L	8een\L	8gg\L	4c#X\	in	4en\	in	4en\	in	4gg\	in	.	.	.	.	.	.	.	.	.
8c#\J	.	.	8cc#\J	8ee\J	8gg\J	.	.	.	.	.	.	.	.	.	.	.	.	.	.	.	.	.
!	!	!	!	!LO:LB:g=original	!	!	!	!	!	!	!	!LO:LB:g=original	!	!	!	!	!	!	!	!	!	!
=21	=21	=21	=21	=21	=21	=21	=21	=21	=21	=21	=21	=21	=21	=21-	=21	=21-	=21-	=21-	=21-	=21-	=21-	=21
*tremolo	*	*	*tremolo	*	*	*	*	*	*	*	*	*	*	*	*	*	*	*	*	*	*	*
8d\L	X 3	2.r	8dd\L	8dd\	8ff\	2d\	u-	2d\	u-	2dd\	u-	2ff\	u-	.	2.ryy	.	.	.	.	.	.	.
8d\	.	.	8dd\	4dd\	4ff\	.	.	.	.	.	.	.	.	.	.	.	.	.	.	.	.	.
8d\	.	.	8dd\	.	.	.	.	.	.	.	.	.	.	.	.	.	.	.	.	.	.	.
8d\J	.	.	8dd\J	8dd\	8ff\	.	.	.	.	.	.	.	.	.	.	.	.	.	.	.	.	.
*Xtremolo	*	*	*Xtremolo	*	*	*	*	*	*	*	*	*	*	*	*	*	*	*	*	*	*	*
8A\L	X 5	.	8a\L	8cc\L	8ee-X\L	4A\	-num	4e-X\	-num	4cc\	-num	4ee-X\	-num	.	.	.	.	.	.	.	.	.
8A\J	.	.	8a\J	8cc\J	8ee-\J	.	.	.	.	.	.	.	.	.	.	.	.	.	.	.	.	.
!LO:LB:g=original	!	!	!	!	!	!LO:LB:g=original	!	!	!	!	!	!	!	!	!	!	!	!	!	!	!	!
=22	=22	=22	=22	=22	=22	=22	=22	=22	=22	=22	=22	=22	=22	=22-	=22	=22-	=22-	=22-	=22-	=22-	=22-	=22
*tremolo	*	*	*tremolo	*	*	*	*	*	*	*	*	*	*	*	*	*	*	*	*	*	*	*
8B-\L	X 3	2.r	8b-\L	8b-\	8dd\	2B-\	Do-	2d\	do-	2b-\	Do-	2dd\	do-	.	2.ryy	.	.	.	.	.	.	.
8B-\	.	.	8b-\	4b-\	4dd\	.	.	.	.	.	.	.	.	.	.	.	.	.	.	.	.	.
8B-\	.	.	8b-\	.	.	.	.	.	.	.	.	.	.	.	.	.	.	.	.	.	.	.
8B-\J	.	.	8b-\J	8b-\	8dd\	.	.	.	.	.	.	.	.	.	.	.	.	.	.	.	.	.
*Xtremolo	*	*	*Xtremolo	*	*	*	*	*	*	*	*	*	*	*	*	*	*	*	*	*	*	*
8F#X\L	5 X	.	8f#X\L	8a/L	8cc\L	4F#X\	-mi-	4c\	-mi-	4a\	-mi-	4cc\	-mi-	.	.	.	.	.	.	.	.	.
8F#\J	.	.	8f#\J	8a/J	8cc\J	.	.	.	.	.	.	.	.	.	.	.	.	.	.	.	.	.
=23	=23	=23	=23	=23	=23	=23	=23	=23	=23	=23	=23	=23	=23	=23-	=23	=23-	=23-	=23-	=23-	=23-	=23-	=23
4G\	.	2.r	4g\	4g/	4b-/	4G\	-num	4d\	-num	4d\	-num	4b-\	-num	.	2.ryy	.	.	.	.	.	.	.
4Cn/	.	.	4cn\	16g/LL	16b-/LL	4r	.	4r	.	4r	.	4r	.	.	.	.	.	.	.	.	.	.
.	.	.	.	16en/	16g/	.	.	.	.	.	.	.	.	.	.	.	.	.	.	.	.	.
.	.	.	.	16f/	16a/	.	.	.	.	.	.	.	.	.	.	.	.	.	.	.	.	.
.	.	.	.	16g/JJ	16b-/JJ	.	.	.	.	.	.	.	.	.	.	.	.	.	.	.	.	.
4r	.	.	4r	16a\LL	16cc\LL	4r	.	4r	.	4r	.	4r	.	.	.	.	.	.	.	.	.	.
.	.	.	.	16b-\	16dd\	.	.	.	.	.	.	.	.	.	.	.	.	.	.	.	.	.
.	.	.	.	16cc\	16een\	.	.	.	.	.	.	.	.	.	.	.	.	.	.	.	.	.
.	.	.	.	16dd\JJ	16ff\JJ	.	.	.	.	.	.	.	.	.	.	.	.	.	.	.	.	.
!	!	!	!	!	!LO:LB:g=original	!	!	!	!	!	!	!	!	!	!	!LO:LB:g=original	!	!	!	!	!	!
=24	=24	=24	=24	=24	=24	=24	=24	=24	=24	=24	=24	=24	=24	=24-	=24	=24	=24	=24	=24	=24	=24	=24
*tremolo	*	*	*tremolo	*	*	*	*	*	*	*	*	*	*	*	*	*	*	*	*	*	*	*
8cn\L	.	2.r	8cc\L	8een\	8gg\	2cn\	Je-	2c\	Je-	2g\	Je-	2een\	Je-	2.r	2.ryy	2.cc\	2.cc\	2.G\	2.eeX\	2.gg\	2.gg\	.
8cn\	.	.	8cc\	4ee\	4gg\	.	.	.	.	.	.	.	.	.	.	.	.	.	.	.	.	.
8cn\	.	.	8cc\	.	.	.	.	.	.	.	.	.	.	.	.	.	.	.	.	.	.	.
8cn\	.	.	8cc\	8ee\	8gg\	.	.	.	.	.	.	.	.	.	.	.	.	.	.	.	.	.
8cn\	.	.	8cc\	16ff\LL	16aa\LL	4c\	-sum	4c\	-sum	4g\	-sum	4ee\	-sum	.	.	.	.	.	.	.	.	.
.	.	.	.	16ee\	16gg\	.	.	.	.	.	.	.	.	.	.	.	.	.	.	.	.	.
8cn\J	.	.	8cc\J	16dd\	16ff#X\	.	.	.	.	.	.	.	.	.	.	.	.	.	.	.	.	.
.	.	.	.	16ee\JJ	16gg\JJ	.	.	.	.	.	.	.	.	.	.	.	.	.	.	.	.	.
!	!	!	!	!	!	!	!	!	!	!LO:LB:g=original	!	!	!	!	!	!	!LO:LB:g=original	!	!	!	!	!
=25	=25	=25	=25	=25	=25	=25	=25	=25	=25	=25	=25	=25	=25	=25	=25	=25	=25	=25	=25	=25	=25	=25
*	*	*	*	*2\right	*	*	*	*	*	*	*	*	*	*	*	*	*	*	*	*	*	*
*	*	*	*	*tremolo	*	*	*	*	*	*	*	*	*	*	*	*	*	*	*	*	*	*
8d\L	5 3	2.r	8dd\L	16ff\LL	8aa\	2d\	Chri-	2c\	Chry-	2a\	Chri-	2ff\	(Chri)-	4FF/	2.ryy	2f/	2cc\	2A\	2ff\	2aa\	2aa\	.
.	.	.	.	16ff\	.	.	.	.	.	.	.	.	.	.	.	.	.	.	.	.	.	.
8d\	.	.	8dd\	16ff\	4aa\	.	.	.	.	.	.	.	.	.	.	.	.	.	.	.	.	.
.	.	.	.	16ff\	.	.	.	.	.	.	.	.	.	.	.	.	.	.	.	.	.	.
8d\	.	.	8dd\	16ff\	.	.	.	.	.	.	.	.	.	8r	.	.	.	.	.	.	.	.
.	.	.	.	16ff\	.	.	.	.	.	.	.	.	.	.	.	.	.	.	.	.	.	.
8d\J	.	.	8dd\J	16ff\	16gg\LL	.	.	.	.	.	.	.	.	8FF/L	.	.	.	.	.	.	.	.
.	.	.	.	16ff\JJ	16ff\JJ	.	.	.	.	.	.	.	.	.	.	.	.	.	.	.	.	.
*Xtremolo	*	*	*Xtremolo	*	*	*	*	*	*	*	*	*	*	*	*	*	*	*	*	*	*	*
8A\L	8 6	.	8a\L	16cc\LL	16een\LL	4A\	-stum	4c\	-stum	4a\	-stum	4cc\	-stum	8FF/	.	4f/	4cc\	4A\	4cc\	4ff\	4ccc\	.
.	.	.	.	16cc\	16ff\	.	.	.	.	.	.	.	.	.	.	.	.	.	.	.	.	.
8A\J	X 6	.	8a\J	16cc\	16cc\	.	.	.	.	.	.	.	.	8FF/J	.	.	.	.	.	.	.	.
.	.	.	.	16cc\JJ	16ee-X\JJ	.	.	.	.	.	.	.	.	.	.	.	.	.	.	.	.	.
*	*	*	*	*Xtremolo	*	*	*	*	*	*	*	*	*	*	*	*	*	*	*	*	*	*
!	!	!	!	!LO:LB:g=original	!	!	!	!	!	!	!	!	!	!LO:LB:g=original	!	!	!	!	!LO:LB:g=original	!LO:LB:g=original	!	!
=26	=26	=26	=26	=26	=26	=26	=26	=26	=26	=26	=26	=26	=26	=26	=26	=26	=26	=26	=26	=26	=26	=26
*	*	*	*	*	*	*	*ij	*	*	*	*	*	*	*	*	*	*	*	*	*	*	*
!!mixed beam:problem
!LO:TX:t=P:problem=mixed beam	!	!	!LO:TX:t=P:problem=mixed beam	!	!	!	!	!	!	!	!	!	!	!LO:TX:a:t=1.	!	!	!	!	!	!LO:TX:a:t=d:rj	!	!
8B-\L	.	2.r	8b-\L	8b-\L	16dd\LL	4B-\	Chri-	4d\	fi-	4b-\	(Chri)-	4dd\	(Chri)-	2.r	2.ryy	4b-\	4dd\	4B-\	4b-\	4cc\	4ddd\	.
.	.	.	.	.	16gg\	.	.	.	.	.	.	.	.	.	.	.	.	.	.	.	.	.
8B-\	.	.	8b-\	16dd\L	16bb-\	.	.	.	.	.	.	.	.	.	.	.	.	.	.	.	.	.
.	.	.	.	16b-\JJ	16gg\JJ	.	.	.	.	.	.	.	.	.	.	.	.	.	.	.	.	.
8c\	X 4	.	8cc\	16a\LL	16ff\LL	4c\	-stum	4c\	-li-	4a\	-stum	4ff\	-stum	.	.	4cc\	4cc\	4A\	4a\	4ff\	4ccc\	.
.	.	.	.	16cc\	16aa\	.	.	.	.	.	.	.	.	.	.	.	.	.	.	.	.	.
8c\	.	.	8cc\	16a\	16ff\	.	.	.	.	.	.	.	.	.	.	.	.	.	.	.	.	.
.	.	.	.	16cc\JJ	16aa\JJ	.	.	.	.	.	.	.	.	.	.	.	.	.	.	.	.	.
*	*	*	*	*	*	*	*Xij	*	*	*	*	*	*	*	*	*	*	*	*	*	*	*
8C/	.	.	8c/	16b-\LL	16cc\LL	4C/	fi-	4c\	-um	4g\	fi-	4een\	fi-	.	.	4cc\	4cc\	4G\	4g\	4eeX\	4bb-\	.
.	.	.	.	16cc\	16een\	.	.	.	.	.	.	.	.	.	.	.	.	.	.	.	.	.
8C/J	.	.	8c/J	16b-\	16cc\	.	.	.	.	.	.	.	.	.	.	.	.	.	.	.	.	.
.	.	.	.	16cc\JJ	16ee\JJ	.	.	.	.	.	.	.	.	.	.	.	.	.	.	.	.	.
!	!	!	!LO:LB:g=original	!	!	!	!	!	!	!	!	!	!	!	!	!	!	!	!	!	!	!
=27	=27	=27	=27	=27	=27	=27	=27	=27	=27	=27	=27	=27	=27	=27	=27	=27	=27	=27	=27	=27	=27	=27
!LO:TX:a:t=|:problem	!	!	!	!	!	!	!	!	!	!	!	!	!	!	!	!	!	!	!	!	!	!
4F\	.	2.r	4f\	16a/LL	16a\LL 16ff\	4F\	-li-	4c\	de-	4a\	-li-	4ff\	-li-	4FF/	2.ryy	4f/	4cc\	4A\	4a\	4ff\	4aa\	.
.	.	.	.	16f/	16f\	.	.	.	.	.	.	.	.	.	.	.	.	.	.	.	.	.
.	.	.	.	16en/	16g\	.	.	.	.	.	.	.	.	.	.	.	.	.	.	.	.	.
.	.	.	.	16f/JJ	16a\JJ	.	.	.	.	.	.	.	.	.	.	.	.	.	.	.	.	.
!LO:TX:a:t=|:problem	!	!	!	!	!	!	!	!	!	!	!	!	!	!	!	!	!	!	!	!	!	!
4F\	.	.	4F/	16g/LL	16b-\LL	4F\	-um	4c\	-i	4a\	-um	4ff\	-um	4FF/	.	4f/	4r	4A\	4a\	4ff\	4aa\	.
.	.	.	.	16f/	16a\	.	.	.	.	.	.	.	.	.	.	.	.	.	.	.	.	.
.	.	.	.	16g/	16b-\	.	.	.	.	.	.	.	.	.	.	.	.	.	.	.	.	.
.	.	.	.	16a/JJ	16cc\JJ	.	.	.	.	.	.	.	.	.	.	.	.	.	.	.	.	.
4r	.	.	4r	16b-\LL	16ddn\LL	4r	.	4r	.	4r	.	4r	.	4r	.	4r	4r	4r	4r	4r	4r	.
.	.	.	.	16cc\	16een\	.	.	.	.	.	.	.	.	.	.	.	.	.	.	.	.	.
.	.	.	.	16dd\	16ff\	.	.	.	.	.	.	.	.	.	.	.	.	.	.	.	.	.
.	.	.	.	16een\JJ	16gg\JJ	.	.	.	.	.	.	.	.	.	.	.	.	.	.	.	.	.
!	!	!	!	!	!LO:LB:g=original	!	!	!	!	!	!	!	!	!	!	!	!	!	!	!	!	!
=28	=28	=28	=28	=28	=28	=28	=28	=28	=28	=28	=28	=28	=28	=28	=28	=28	=28	=28	=28	=28	=28	=28
*tremolo	*	*	*tremolo	*	*	*	*	*	*	*	*	*	*	*	*	*	*	*	*	*	*	*
!	!	!	!	!	!	!	!	!	!	!	!	!	!	!LO:TX:a:t=5.	!	!LO:TX:a:t=4	!	!LO:TX:a:t=4	!LO:TX:a:t=4	!LO:TX:a:t=4	!LO:TX:a:t=4.	!
8F\L	X 3	2.r	8f\L	8ff\	8aa\	2G\	De-	2f\	de-	2f\	de-	2aa\	De-	0.r	2.ryy	0.r	0.r	0.r	0.r	0.r	0.r	.
8F\	.	.	8f\	4ff\	4aa\	.	.	.	.	.	.	.	.	.	.	.	.	.	.	.	.	.
8F\	.	.	8f\	.	.	.	.	.	.	.	.	.	.	.	.	.	.	.	.	.	.	.
8F\J	.	.	8f\J	8ff\	8aa\	.	.	.	.	.	.	.	.	.	.	.	.	.	.	.	.	.
*Xtremolo	*	*	*Xtremolo	*	*	*	*	*	*	*	*	*	*	*	*	*	*	*	*	*	*	*
8c#X\L	X 4	.	8cc#X\L	8een\L	8gg\L	4c#X\	-i	4en\	-i	4en\	-i	4gg\	-i	.	.	.	.	.	.	.	.	.
8c#\J	.	.	8cc#\J	8ee\J	8gg\J	.	.	.	.	.	.	.	.	.	.	.	.	.	.	.	.	.
!	!	!	!	!	!	!	!	!LO:LB:g=original	!	!	!	!	!	!	!	!	!	!	!	!	!	!
=29	=29	=29	=29	=29	=29	=29	=29	=29	=29	=29	=29	=29	=29	=29-	=29	=29-	=29-	=29-	=29-	=29-	=29-	=29
*tremolo	*	*	*tremolo	*	*	*	*	*	*	*	*	*	*	*	*	*	*	*	*	*	*	*
8d\L	X 3	2.r	8dd\L	8dd\	8ff\	2d\	u-	2d\	u-	2dd\	u-	2ff\	u-	.	2.ryy	.	.	.	.	.	.	.
8d\	.	.	8dd\	4dd\	4ff\	.	.	.	.	.	.	.	.	.	.	.	.	.	.	.	.	.
8d\	.	.	8dd\	.	.	.	.	.	.	.	.	.	.	.	.	.	.	.	.	.	.	.
8d\J	.	.	8dd\J	8dd\	8ff\	.	.	.	.	.	.	.	.	.	.	.	.	.	.	.	.	.
*Xtremolo	*	*	*Xtremolo	*	*	*	*	*	*	*	*	*	*	*	*	*	*	*	*	*	*	*
!	!	!	!	!LO:LB:g=original	!	!	!	!	!	!	!	!	!	!	!	!	!	!	!	!	!	!
8A\L	5 X	.	8a\L	8cc\L	8ee-X\L	4A\	-ni-	4e-X\	-ni-	4cc\	-ni-	4ee-X\	-ni	.	.	.	.	.	.	.	.	.
8A\J	.	.	8a\J	8cc\J	8ee-\J	.	.	.	.	.	.	.	.	.	.	.	.	.	.	.	.	.
!LO:LB:g=original	!	!	!	!	!	!LO:LB:g=original	!	!	!	!	!	!	!	!	!	!	!	!	!	!	!	!
=30	=30	=30	=30	=30	=30	=30	=30	=30	=30	=30	=30	=30	=30	=30-	=30	=30-	=30-	=30-	=30-	=30-	=30-	=30
*tremolo	*	*	*tremolo	*	*	*	*	*	*	*	*	*	*	*	*	*	*	*	*	*	*	*
8B-\L	X 3	2.r	8b-\L	8b-\	8dd\	2B-\	-ge-	2d\	-ge-	2b-\	-ge-	2dd\	ge-	.	2.ryy	.	.	.	.	.	.	.
8B-\	.	.	8b-\	4b-\	4dd\	.	.	.	.	.	.	.	.	.	.	.	.	.	.	.	.	.
8B-\	.	.	8b-\	.	.	.	.	.	.	.	.	.	.	.	.	.	.	.	.	.	.	.
8B-\J	.	.	8b-\J	8b-\	8dd\	.	.	.	.	.	.	.	.	.	.	.	.	.	.	.	.	.
*Xtremolo	*	*	*Xtremolo	*	*	*	*	*	*	*	*	*	*	*	*	*	*	*	*	*	*	*
8F#X\L	5 X	.	8f#X\L	8a/L	8cc\L	4F#X\	-ni-	4c\	-ni-	4a\	-ni-	4cc\	-ni-	.	.	.	.	.	.	.	.	.
8F#\J	.	.	8f#\J	8a/J	8cc\J	.	.	.	.	.	.	.	.	.	.	.	.	.	.	.	.	.
=31	=31	=31	=31	=31	=31	=31	=31	=31	=31	=31	=31	=31	=31	=31-	=31	=31-	=31-	=31-	=31-	=31-	=31-	=31
4G\	.	2.r	4g\	4g/	4b-/	4G\	-tum	4d\	-tum	4d\	-tum	4b-\	-tum	.	2.ryy	.	.	.	.	.	.	.
4C/	.	.	4cn\	16g/LL	16b-/LL	4r	.	4r	.	4r	.	4r	.	.	.	.	.	.	.	.	.	.
.	.	.	.	16en/	16g/	.	.	.	.	.	.	.	.	.	.	.	.	.	.	.	.	.
.	.	.	.	16f/	16a/	.	.	.	.	.	.	.	.	.	.	.	.	.	.	.	.	.
.	.	.	.	16g/JJ	16b-/JJ	.	.	.	.	.	.	.	.	.	.	.	.	.	.	.	.	.
4r	.	.	4r	16a\LL	16cc\LL	4r	.	4r	.	4r	.	4r	.	.	.	.	.	.	.	.	.	.
.	.	.	.	16b-\	16dd\	.	.	.	.	.	.	.	.	.	.	.	.	.	.	.	.	.
.	.	.	.	16cc\	16een\	.	.	.	.	.	.	.	.	.	.	.	.	.	.	.	.	.
.	.	.	.	16dd\JJ	16ff\JJ	.	.	.	.	.	.	.	.	.	.	.	.	.	.	.	.	.
=32	=32	=32	=32	=32	=32	=32	=32	=32	=32	=32	=32	=32	=32	=32-	=32	=32	=32	=32	=32	=32	=32	=32
*tremolo	*	*	*tremolo	*	*	*	*	*	*	*	*	*	*	*	*	*	*	*	*	*	*	*
8c\L	.	2.r	8ccn\L	8een\	8gg\	2cn\	et	2c\	et	2g\	et	2een\	et	2.r	2.ryy	2.cc\	2.cc\	2.G\	2.eeX\	2.gg\	2.gg\	.
8c\	.	.	8ccn\	4ee\	4gg\	.	.	.	.	.	.	.	.	.	.	.	.	.	.	.	.	.
8c\	.	.	8ccn\	.	.	.	.	.	.	.	.	.	.	.	.	.	.	.	.	.	.	.
8c\	.	.	8ccn\	8ee\	8gg\	.	.	.	.	.	.	.	.	.	.	.	.	.	.	.	.	.
8c\	.	.	8ccn\	16ff\LL	16aa\LL	4c\	ex-	4c\	ex	4g\	ex	4ee\	ex	.	.	.	.	.	.	.	.	.
.	.	.	.	16ee\	16gg\	.	.	.	.	.	.	.	.	.	.	.	.	.	.	.	.	.
8c\J	.	.	8ccn\J	16dd\	16ff#X\	.	.	.	.	.	.	.	.	.	.	.	.	.	.	.	.	.
.	.	.	.	16ee\JJ	16gg\JJ	.	.	.	.	.	.	.	.	.	.	.	.	.	.	.	.	.
!	!	!	!	!	!LO:LB:g=original	!	!	!	!	!LO:LB:g=original	!	!LO:LB:g=original	!	!	!	!	!	!	!	!	!	!
=33	=33	=33	=33	=33	=33	=33	=33	=33	=33	=33	=33	=33	=33	=33	=33	=33	=33	=33	=33	=33	=33	=33
*	*	*	*	*tremolo	*	*	*	*	*	*	*	*	*	*	*	*	*	*	*	*	*	*
8d\L	5 3	2.r	8dd\L	16ff\LL	8aa\	2d\	-pa-	2c\	pa-	2a\	pa-	2ff\	pa-	4FF/	2.ryy	2f/	2cc\	2A\	2ff\	2aa\	2aa\	.
.	.	.	.	16ff\	.	.	.	.	.	.	.	.	.	.	.	.	.	.	.	.	.	.
8d\	.	.	8dd\	16ff\	4aa\	.	.	.	.	.	.	.	.	.	.	.	.	.	.	.	.	.
.	.	.	.	16ff\	.	.	.	.	.	.	.	.	.	.	.	.	.	.	.	.	.	.
8d\	.	.	8dd\	16ff\	.	.	.	.	.	.	.	.	.	8r	.	.	.	.	.	.	.	.
.	.	.	.	16ff\	.	.	.	.	.	.	.	.	.	.	.	.	.	.	.	.	.	.
*	*	*	*	*	*	*	*	*	*	*	*	*	*	*tremolo	*	*	*	*	*	*	*	*
!	!	!	!	!	!	!	!	!	!	!	!	!	!	!LO:TX:b:t=....	!	!	!	!	!	!	!	!
8d\J	.	.	8dd\J	16ff\	16gg\LL	.	.	.	.	.	.	.	.	8FF/L'<	.	.	.	.	.	.	.	.
.	.	.	.	16ff\JJ	16ff\JJ	.	.	.	.	.	.	.	.	.	.	.	.	.	.	.	.	.
*Xtremolo	*	*	*Xtremolo	*	*	*	*	*	*	*	*	*	*	*	*	*	*	*	*	*	*	*
8A\L	8 6	.	8a\L	16cc\LL	16een\LL	4A\	-tre	4c\	-tre	4a\	-tre	4cc\	-tre	8FF/'<	.	4f/	4cc\	4A\	4cc\	4ff\	4ccc\	.
.	.	.	.	16cc\	16ff\	.	.	.	.	.	.	.	.	.	.	.	.	.	.	.	.	.
8A\J	.	.	8a\J	16cc\	16cc\	.	.	.	.	.	.	.	.	8FF/J'<	.	.	.	.	.	.	.	.
.	.	.	.	16cc\JJ	16ee-X\JJ	.	.	.	.	.	.	.	.	.	.	.	.	.	.	.	.	.
*	*	*	*	*Xtremolo	*	*	*	*	*	*	*	*	*	*Xtremolo	*	*	*	*	*	*	*	*
!	!	!	!	!	!	!	!	!	!	!	!	!	!	!	!	!	!	!	!	!	!LO:LB:g=original	!
=34	=34	=34	=34	=34	=34	=34	=34	=34	=34	=34	=34	=34	=34	=34	=34	=34	=34	=34	=34	=34	=34	=34
*	*	*	*	*	*	*	*ij	*	*	*	*ij	*	*	*	*	*	*	*	*	*	*	*
!!mixed beam:problem
!LO:TX:t=P:problem=mixed beam	!	!	!LO:TX:t=P:problem=mixed beam	!	!	!	!	!	!	!	!	!	!	!LO:TX:a:t=1.	!	!	!	!	!	!	!	!
8B-\L	6 X	2.r	8b-\L	8b-\L	16dd\LL	4B-\	pa-	4d\	na-	4b-\	pa-	4dd\	pa-	2.r	2.ryy	4b-\	4dd\	4B-\	4b-\	4dd\	4ddd\	.
.	.	.	.	.	16gg\	.	.	.	.	.	.	.	.	.	.	.	.	.	.	.	.	.
8B-\	.	.	8b-\	16dd\L	16bb-\	.	.	.	.	.	.	.	.	.	.	.	.	.	.	.	.	.
.	.	.	.	16b-\JJ	16gg\JJ	.	.	.	.	.	.	.	.	.	.	.	.	.	.	.	.	.
!	!	!	!	!LO:LB:g=original	!	!	!	!	!	!	!	!	!	!	!	!	!	!	!	!	!	!
8c\	X 4	.	8cc\	16a\LL	16ff\LL	4c\	-tre	4c\	-tum	4a\	-tre	4ff\	-tre	.	.	4cc\	4cc\	4A\	4a\	4ff\	4ccc\	.
.	.	.	.	16cc\	16aa\	.	.	.	.	.	.	.	.	.	.	.	.	.	.	.	.	.
8c\	.	.	8cc\	16a\	16ff\	.	.	.	.	.	.	.	.	.	.	.	.	.	.	.	.	.
.	.	.	.	16cc\JJ	16aa\JJ	.	.	.	.	.	.	.	.	.	.	.	.	.	.	.	.	.
*	*	*	*	*	*	*	*Xij	*	*	*	*Xij	*	*	*	*	*	*	*	*	*	*	*
8C/	.	.	8c/	16b-\LL	16cc\LL	4C/	na-	4c\	an-	4g\	na-	4een\	na-	.	.	4cc\	4cc\	4G\	4g\	4eeX\	4bb-\	.
.	.	.	.	16cc\	16een\	.	.	.	.	.	.	.	.	.	.	.	.	.	.	.	.	.
8C/J	.	.	8c/J	16b-\	16cc\	.	.	.	.	.	.	.	.	.	.	.	.	.	.	.	.	.
.	.	.	.	16cc\JJ	16ee\JJ	.	.	.	.	.	.	.	.	.	.	.	.	.	.	.	.	.
!	!	!	!LO:LB:g=original	!	!	!	!	!	!	!	!	!	!	!	!	!	!	!	!	!	!	!
=35	=35	=35	=35	=35	=35	=35	=35	=35	=35	=35	=35	=35	=35	=35	=35	=35	=35	=35	=35	=35	=35	=35
4F\	8 X	2.r	4f\	4a/	4ff\	4F\	-tum	4c\	-te	4a\	-tum	4ff\	-tum	4FF/	2.ryy	4f/	4cc\	4A\	4b-\	4ff\	4aa\	.
!LO:TX:a:t=|:problem	!	!	!	!	!	!	!	!	!	!	!	!	!	!	!	!LO:TX:b:t=e	!	!	!	!	!	!
4D\	.	.	4d\	4d/	4dd\	4r	.	4r	.	4r	.	4r	.	4r	.	4d/	4dd\	4d\	4d/	4dd\	4ddd\	.
!LO:TX:a:t=|:problem	!	!	!	!	!	!	!	!	!	!	!	!	!	!	!	!	!	!	!	!	!	!
4D\	.	.	4d\	4d/	4dd\	4r	.	4r	.	4r	.	4r	.	4r	.	4d/	4dd\	4d\	4d/	4dd\	4ddd\	.
!	!	!	!	!	!	!	!	!	!	!	!	!	!	!	!	!	!	!LO:LB:g=original	!	!	!	!
=36	=36	=36	=36	=36	=36	=36	=36	=36	=36	=36	=36	=36	=36	=36	=36	=36	=36	=36	=36	=36	=36	=36
!	!	!	!	!	!	!LO:TX:a:t=1.	!	!LO:TX:a:t=1	!	!LO:TX:b:t=1.	!	!LO:TX:a:t=1.	!	!LO:TX:a:t=6.	!	!	!	!	!	!	!	!
2G\	.	2.r	2g\	2g/	2gg\	2.r	.	2.r	.	2.r	.	2.r	.	0.r	2.ryy	4d/	4dd\	4g\	4g/	4gg\	4ggg\	.
.	.	.	.	.	.	.	.	.	.	.	.	.	.	.	.	4r	4r	4r	4r	4r	4r	.
4D\	.	.	4d\	4d/	4dd\	.	.	.	.	.	.	.	.	.	.	4r	4r	4r	4r	4r	4r	.
=37	=37	=37	=37	=37	=37	=37	=37	=37	=37	=37	=37	=37	=37	=37-	=37	=37	=37	=37	=37	=37	=37	=37
8BB-'</L	.	2.r	8B-/L	8B-/L	8b-/L	4G\	Cre-	4g\	Cre-	4g\	Cre-	4gg\	Cre-	.	2.ryy	2d/	2dd\	2g\	2g/	2gg\	2ggg\	.
8GG'</J	.	.	8G/J	8G/J	8g/J	.	.	.	.	.	.	.	.	.	.	.	.	.	.	.	.	.
8GG'</L	.	.	8G/L	8G/L	8g/L	4G\	-do	4g\	-do	4g\	-do	4gg\	-do	.	.	.	.	.	.	.	.	.
16AA'</L	.	.	16A/L	16A/L	16a/L	.	.	.	.	.	.	.	.	.	.	.	.	.	.	.	.	.
16BB-'</JJ	.	.	16B-/JJ	16B-/JJ	16b-/JJ	.	.	.	.	.	.	.	.	.	.	.	.	.	.	.	.	.
!	!	!	!LO:TX:a:t=bis&colon;	!	!	!	!	!	!	!	!	!	!	!	!	!	!	!	!	!	!	!
16C'>\LL	.	.	16c\LL	16c/LL	16cc\LL	4D\	in	4d\	in	4d\	in	4dd\	in	.	.	4d/	4dd\	4d\	4d/	4dd\	4ddd\	.
16D'>\	.	.	16d\	16d/	16dd\	.	.	.	.	.	.	.	.	.	.	.	.	.	.	.	.	.
16E-X'>\	.	.	16e-X\	16e-X/	16ee-X\	.	.	.	.	.	.	.	.	.	.	.	.	.	.	.	.	.
16F#X'>\JJ	.	.	16f#X\JJ	16f#X/JJ	16ff#X\JJ	.	.	.	.	.	.	.	.	.	.	.	.	.	.	.	.	.
!LO:LB:g=original	!	!	!	!	!LO:LB:g=original	!	!	!	!	!	!	!	!	!	!	!LO:LB:g=original	!	!	!LO:LB:g=original	!	!	!
=38	=38	=38	=38	=38	=38	=38	=38	=38	=38	=38	=38	=38	=38	=38-	=38	=38	=38	=38	=38	=38	=38	=38
!	!	!	!LO:TX:t=P:problem=takty 38-39 oznaczone znakiem repetycji	!	!	!	!	!	!	!	!	!	!	!	!	!	!	!	!	!	!	!
2G\	.	2.r	2g\yy	2g/	2gg\	4BB-/	u-	4B-\	u-	4B-/	u-	4b-\	u-	.	2.ryy	4d/	4dd\	4B-\	4B-/	4b-\	4bb-\	.
.	.	.	.	.	.	4GG/	-num	4G/	-num	4G/	-num	4g\	-num	.	.	4r	4dd\	4G\	4G/	4g\	4gg\	.
4D\	.	.	4d\yy	4d/	4dd\	4r	.	4r	.	4r	.	4r	.	.	.	4r	4r	4r	4r	4r	4r	.
!	!	!	!	!	!	!LO:LB:g=original	!	!	!	!	!	!	!	!	!	!	!LO:LB:g=original	!	!	!	!	!
=39	=39	=39	=39	=39	=39	=39	=39	=39	=39	=39	=39	=39	=39	=39-	=39	=39	=39	=39	=39	=39	=39	=39
8BB-'</L	.	2.r	8B-/Lyy	8B-/L	8b-/L	4G\	in	4g\	in	4g\	in	4gg\	in	.	2.ryy	2d/	2dd\	2g\	2g/	2gg\	2ggg\	.
8GG'</J	.	.	8G/Jyy	8G/J	8g/J	.	.	.	.	.	.	.	.	.	.	.	.	.	.	.	.	.
8GG'</L	.	.	8G/Lyy	8G/L	8g/L	4G\	u-	4g\	u-	4g\	u-	4gg\	u-	.	.	.	.	.	.	.	.	.
16AA'</L	.	.	16A/Lyy	16A/L	16a/L	.	.	.	.	.	.	.	.	.	.	.	.	.	.	.	.	.
16BB-'</JJ	.	.	16B-/JJyy	16B-/JJ	16b-/JJ	.	.	.	.	.	.	.	.	.	.	.	.	.	.	.	.	.
!	!	!	!	!LO:LB:g=original	!	!	!	!	!	!	!	!	!	!	!	!	!	!	!	!	!	!
16C'>\LL	.	.	16c\LLyy	16c/LL	16cc\LL	4D\	-num	4d\	-num	4d\	-num	4dd\	-num	.	.	4d/	4dd\	4d\	4d/	4dd\	4ddd\	.
16D'>\	.	.	16d\yy	16d/	16dd\	.	.	.	.	.	.	.	.	.	.	.	.	.	.	.	.	.
16E-X'>\	.	.	16e-X\yy	16e-X/	16ee-X\	.	.	.	.	.	.	.	.	.	.	.	.	.	.	.	.	.
16F#X'>\JJ	.	.	16f#X\JJyy	16f#X/JJ	16ff#X\JJ	.	.	.	.	.	.	.	.	.	.	.	.	.	.	.	.	.
=40	=40	=40	=40	=40	=40	=40	=40	=40	=40	=40	=40	=40	=40	=40-	=40	=40	=40	=40	=40	=40	=40	=40
!LO:TX:a:t=|:problem	!	!	!	!	!	!	!	!	!	!	!	!	!	!	!	!	!	!	!	!	!	!
4G\	.	2.r	4g\	4g/	4gg\	4BB-/	de-	4B-\	de-	4B-/	de-	4b-\	de-	1.r	2.ryy	4d/	4dd\	4B-\	4B-/	4b-\	4bb-\	.
4G\	.	.	4G/	4b-/	4b-\	4GG/	-um	4G/	-i	4G/	-um	4g\	-um	.	.	4r	4dd\	4G\	4G/	4g\	4gg\	.
4G\	.	.	4g\	4b-/	4dd\	4G\	an-	4B-\	an-	4b-\	an-	4b-\	an-	.	.	4r	4r	4r	4r	4r	4r	.
!	!	!	!	!	!	!	!	!LO:LB:g=original	!	!	!	!	!	!	!	!	!	!	!	!	!	!
=41	=41	=41	=41	=41	=41	=41	=41	=41	=41	=41	=41	=41	=41	=41-	=41	=41	=41	=41	=41	=41	=41	=41
*tremolo	*	*	*tremolo	*tremolo	*tremolo	*	*	*	*	*	*	*	*	*	*	*	*	*	*	*	*	*
8Fn\L	7 X	2.r	8fn\L	8cc\L	8ee-X\L	4Fn\	-te	4f\	-te	4cc\	-te	4ee-\	-te	.	2.ryy	2.f/	2.cc\	2.e-\	2.cc\	2.ee-X\	2.ccc\	.
8Fn\	.	.	8fn\	8cc\	8ee-X\	.	.	.	.	.	.	.	.	.	.	.	.	.	.	.	.	.
8Fn\	.	.	8fn\	8cc\	8ee-X\	4F\	om-	4f\	om-	4cc\	om-	4ee-\	om-	.	.	.	.	.	.	.	.	.
8Fn\	.	.	8fn\	8cc\	8ee-X\	.	.	.	.	.	.	.	.	.	.	.	.	.	.	.	.	.
8Fn\	.	.	8fn\	8cc\	8ee-X\	4F\	-ni-	4f\	-ni-	4cc\	-ni-	4ee-\	-ni-	.	.	.	.	.	.	.	.	.
8Fn\J	.	.	8fn\J	8cc\J	8ee-X\J	.	.	.	.	.	.	.	.	.	.	.	.	.	.	.	.	.
!	!	!	!	!	!	!	!	!	!	!LO:LB:g=original	!	!	!	!	!	!	!	!	!	!	!	!
=42	=42	=42	=42	=42	=42	=42	=42	=42	=42	=42	=42	=42	=42	=42	=42	=42	=42	=42	=42	=42	=42	=42
*	*	*	*	*	*	*	*	*	*	*	*	*	*	*	*	*tremolo	*tremolo	*	*tremolo	*tremolo	*	*
!	!	!	!	!	!	!	!	!	!	!	!	!	!	!	!	!	!LO:TX:a:t=....	!	!	!LO:TX:a:t=....	!	!
8F\L	7 X	2.r	8f\L	8f/ 8ccL/	8aa\L	4F\	-a	4c\	-a	4a\	-a	4ee-\	-a	8FF/L	2.ryy	8f/L	8cc\L'>	2.e-\	8cc\L	8ee-X\L'>	2.ccc\	.
8F\	.	.	8f\	8f/ 8cc/	8aa\	.	.	.	.	.	.	.	.	16FF/L	.	8f/	8cc\'>	.	8cc\	8ee-X\'>	.	.
.	.	.	.	.	.	.	.	.	.	.	.	.	.	16FF/JJ	.	.	.	.	.	.	.	.
*	*	*	*	*	*	*	*	*	*	*	*	*	*	*tremolo	*	*	*	*	*	*	*	*
!	!	!	!	!	!	!	!	!	!	!	!	!	!	!LO:TX:b:t=....	!	!	!	!	!	!	!	!
8F\	.	.	8f\	8f/ 8cc/	8aa\	4F\	ſae-	4c\	se-	4a\	ſe-	4ee-\	se-	8FF/L'<	.	8f/	8cc\'>	.	8cc\	8ee-X\'>	.	.
8F\	.	.	8f\	8f/ 8cc/	8aa\	.	.	.	.	.	.	.	.	8FF/'<	.	8f/	8cc\'>	.	8cc\	8ee-X\'>	.	.
8F\	.	.	8f\	8f/ 8cc/	8aa\	4F\	-cu-	4c\	-cu-	4a\	-c[u]-	4ee-\	-cu-	8FF/'<	.	8f/	8cc\'>	.	8cc\	8ee-X\'>	.	.
8F\J	.	.	8f\J	8f/ 8ccJ/	8aa\J	.	.	.	.	.	.	.	.	8FF/J'<	.	8f/J	8cc\J'>	.	8cc\J	8ee-X\J'>	.	.
*Xtremolo	*	*	*Xtremolo	*Xtremolo	*Xtremolo	*	*	*	*	*	*	*	*	*Xtremolo	*	*Xtremolo	*Xtremolo	*	*Xtremolo	*Xtremolo	*	*
!	!	!	!	!	!	!	!	!	!	!	!	!	!	!	!	!	!	!	!	!LO:LB:g=original	!	!
=43	=43	=43	=43	=43	=43	=43	=43	=43	=43	=43	=43	=43	=43	=43	=43	=43	=43	=43	=43	=43	=43	=43
2B-'>\	.	2.r	2b-\	2b-\	2bb-\	4B-\	-la	4B-\	-la	4b-\	-la	4dd\	-la	4BB-/	2.ryy	4B-/	4b-\	4d\	4b-\	4dd\	4bb-\	.
.	.	.	.	.	.	4r	.	4r	.	4r	.	4r	.	4r	.	4r	4r	4r	4r	4r	4r	.
4F'>\	.	.	4f\	4f/	4ff\	4r	.	4r	.	4r	.	4r	.	4r	.	4r	4r	4r	4r	4r	4r	.
=44	=44	=44	=44	=44	=44	=44	=44	=44	=44	=44	=44	=44	=44	=44	=44	=44	=44	=44	=44	=44	=44	=44
8D'</L	.	2.r	8d\L	8d/L	8dd\L	4B-\	Cre-	4B-\	Cre-	4b-\	Cre-	4bb-\	Cre-	4BB-/	2.ryy	2b-\	2b-\	2B-\	2b-\	2bb-\	2bb-\	.
8BB-'</J	.	.	8B-\J	8B-/J	8b-\J	.	.	.	.	.	.	.	.	.	.	.	.	.	.	.	.	.
!	!	!	!LO:TX:a:t=bis.	!	!	!	!	!	!	!	!	!	!	!	!	!	!	!	!	!	!	!
8BB-'</L	.	.	8B-\L	8B-/L	8b-\L	4B-\	-do	4B-\	-do	4b-\	-do	4bb-\	-do	4r	.	.	.	.	.	.	.	.
16C'</L	.	.	16c\L	16c/L	16cc\L	.	.	.	.	.	.	.	.	.	.	.	.	.	.	.	.	.
16D'</JJ	.	.	16d\JJ	16d/JJ	16dd\JJ	.	.	.	.	.	.	.	.	.	.	.	.	.	.	.	.	.
!	!	!	!	!	!	!	!	!	!	!	!	!	!	!	!	!	!	!	!	!	!	!LO:DY:b:t=for:rj
16E-'>\LL	.	.	16e-\LL	16e-/LL	16ee-\LL	4F\	in	4f\	in	4f\	in	4ff\	in	4FF/	.	4f/	4ff\	4F\	4f/	4ff\	4ff\	f
16F'>\	.	.	16f\	16f/	16ff\	.	.	.	.	.	.	.	.	.	.	.	.	.	.	.	.	.
16G'>\	.	.	16g\	16g/	16gg\	.	.	.	.	.	.	.	.	.	.	.	.	.	.	.	.	.
16A'>\JJ	.	.	16a\JJ	16a/JJ	16aa\JJ	.	.	.	.	.	.	.	.	.	.	.	.	.	.	.	.	.
!	!	!	!	!	!LO:LB:g=original	!	!	!	!	!	!	!LO:LB:g=original	!	!	!	!	!	!LO:LB:g=original	!	!	!	!
=45	=45	=45	=45	=45	=45	=45	=45	=45	=45	=45	=45	=45	=45	=45	=45	=45	=45	=45	=45	=45	=45	=45
!	!	!	!LO:TX:t=P:problem=takty 45-46 oznaczone znakiem repetycji	!	!	!	!	!	!	!	!	!	!	!	!	!	!	!	!	!	!	!
2B-'>\	.	2.r	2b-\yy	2b-\	2bb-\	4D\	u-	4d\	u-	4d\	u-	4dd\	u-	4BB-/	2.ryy	4d/	4dd\	4D/	4d/	4dd\	4dd\	.
.	.	.	.	.	.	4BB-\	-num	4B-\	-num	4B-/	-num	4b-\	-num	4BB-/	.	4d/	4b-\	4BB-/	4B-/	4b-\	4b-\	.
4F'>\	.	.	4f\yy	4f/	4ff\	4r	.	4r	.	4r	.	4r	.	4r	.	4r	4r	4r	4r	4r	4r	.
!LO:LB:g=original	!	!	!	!LO:LB:g=original	!	!	!	!	!	!	!	!	!	!LO:LB:g=original	!	!	!	!	!	!	!	!
=46	=46	=46	=46	=46	=46	=46	=46	=46	=46	=46	=46	=46	=46	=46	=46	=46	=46	=46	=46	=46	=46	=46
!	!	!	!	!	!	!	!	!	!	!	!	!	!	!	!	!LO:TX:t=P:problem=takty 46-47 oznaczone znakiem repetycji	!	!	!	!	!	!
8D'</L	.	2.r	8d\Lyy	8d/L	8dd\L	4B-\	in	4B-\	in	4b-\	in	4bb-\	in	4BB-/	2.ryy	2b-\yy	2b-\	2B-\	2b-\	2bb-\	2bb-\	.
8BB-'</J	.	.	8B-\Jyy	8B-/J	8b-\J	.	.	.	.	.	.	.	.	.	.	.	.	.	.	.	.	.
8BB-'</L	.	.	8B-\Lyy	8B-/L	8b-\L	4B-\	u-	4B-\	u-	4b-\	u-	4bb-\	u-	4r	.	.	.	.	.	.	.	.
16C'</L	.	.	16c\Lyy	16c/L	16cc\L	.	.	.	.	.	.	.	.	.	.	.	.	.	.	.	.	.
16D'</JJ	.	.	16d\JJyy	16d/JJ	16dd\JJ	.	.	.	.	.	.	.	.	.	.	.	.	.	.	.	.	.
16E-'>\LL	.	.	16e-\LLyy	16e-/LL	16ee-\LL	4F\	-num	4f\	-num	4f\	-num	4ff\	-num	4FF/	.	4f/yy	4ff\	4F\	4f/	4ff\	4ff\	.
16F'>\	.	.	16f\yy	16f/	16ff\	.	.	.	.	.	.	.	.	.	.	.	.	.	.	.	.	.
16G'>\	.	.	16g\yy	16g/	16gg\	.	.	.	.	.	.	.	.	.	.	.	.	.	.	.	.	.
16A'>\JJ	.	.	16a\JJyy	16a/JJ	16aa\JJ	.	.	.	.	.	.	.	.	.	.	.	.	.	.	.	.	.
!	!	!	!LO:PB:g=original	!	!	!LO:LB:g=original	!	!	!	!	!	!	!	!	!	!	!	!	!LO:LB:g=original	!	!	!
=47	=47	=47	=47	=47	=47	=47	=47	=47	=47	=47	=47	=47	=47	=47	=47	=47	=47	=47	=47	=47	=47	=47
4B-\	.	2.r	4b-\	4b-\	4bb-\	4D\	de-	4d\	de-	4d\	de-	4dd\	de-	4BB-/	2.ryy	4d/yy	4dd\	4D/	4d/	4dd\	4dd\	.
4BB-/	.	.	4B-/	4B-/	4b-\	4BB-/	-um	4B-\	-um	4B-/	-um	4b-\	-um	4BB-/	.	4d/yy	4b-\	4BB-/	4B-/	4b-\	4b-\	.
!	!	!	!	!	!	!	!	!	!LO:MO:P=qui	!	!	!	!	!	!	!	!	!	!	!	!	!
4d\	.	.	4dd\	4dd\	4dd\	4d\	qui	4d\	qwi	4dd\	qui	4dd\	prop-	4r	.	4ryy	4r	4d\	4d/	4dd\	4ddd\	.
=48	=48	=48	=48	=48	=48	=48	=48	=48	=48	=48	=48	=48	=48	=48	=48	=48	=48	=48	=48	=48	=48	=48
!	!	!	!	!	!	!	!	!	!	!	!	!	!	!LO:TX:a:t=4.	!	!LO:TX:a:t=4	!	!	!	!	!	!
8f'>\L	.	2.r	8ff\L	8ff\L	8ff\L	4f\	prop-	4f\	p(ro)p-	4ff\	p(ro)p-	4ff\	ter	0.r	2.ryy	0.r	0.r	4f\	4f/	4ff\	4fff\	.
8f'>\	.	.	8ff\	8ff\	8ff\	.	.	.	.	.	.	.	.	.	.	.	.	.	.	.	.	.
8d'>\	.	.	8dd\	8dd\	8dd\	4d\	-ter	4d\	-ter	4dd\	-ter	4dd\	.	.	.	.	.	4d\	4d/	4dd\	4ddd\	.
8d'>\	.	.	8dd\	8dd\	8dd\	.	.	.	.	.	.	.	.	.	.	.	.	.	.	.	.	.
8B-'>\	.	.	8b-\	8b-\	8b-\	4B-\	nos	4B-\	nos	4b-\	nos	4b-\	nos	.	.	.	.	4B-\	4B-/	4b-\	4bb-\	.
8B-'>\J	.	.	8b-\J	8b-\J	8b-\J	.	.	.	.	.	.	.	.	.	.	.	.	.	.	.	.	.
!	!	!	!	!	!	!	!	!	!	!	!	!	!	!	!	!	!	!	!	!	!LO:LB:g=original	!
=49	=49	=49	=49	=49	=49	=49	=49	=49	=49	=49	=49	=49	=49	=49-	=49	=49-	=49-	=49	=49	=49	=49	=49
8d'>\L	.	2.r	8dd\L	8dd\L	8dd\L	4d\	ho-	4d\	ho-	4dd\	ho-	4dd\	ho-	.	2.ryy	.	.	4d\	4d/	4dd\	4ddd\	.
8d'>\	.	.	8dd\	8dd\	8dd\	.	.	.	.	.	.	.	.	.	.	.	.	.	.	.	.	.
8B-'>\	.	.	8b-\	8b-\	8b-\	4B-\	-mi-	4B-\	-mi-	4b-\	-mi-	4b-\	-mi-	.	.	.	.	4B-\	4B-/	4b-\	4bb-\	.
8B-'>\	.	.	8b-\	8b-\J	8b-\J	.	.	.	.	.	.	.	.	.	.	.	.	.	.	.	.	.
!	!	!	!	!	!	!	!	!	!	!LO:LB:g=original	!	!	!	!	!	!	!	!	!	!	!	!
8F'>\	.	.	8f\	8f/L	8f/L	4F\	-nes	4G/	-nes	4f\	-nes	4g\	-nes	.	.	.	.	4F\	4F/	4f/	4ff\	.
8F'>\J	.	.	8f\J	8f/J	8f/J	.	.	.	.	.	.	.	.	.	.	.	.	.	.	.	.	.
=50	=50	=50	=50	=50	=50	=50	=50	=50	=50	=50	=50	=50	=50	=50-	=50	=50-	=50-	=50	=50	=50	=50	=50
8B-'>\L	.	2.r	8b-\L	8b-/L	8b-/L	4B-\	et	4B-\	et	4b-\	et	4b-\	et	.	2.ryy	.	.	4B-\	4B-/	4b-\	4bb-\	.
8B-'>\	.	.	8b-\	8b-/	8b-/	.	.	.	.	.	.	.	.	.	.	.	.	.	.	.	.	.
8F'>\	.	.	8f\	8f/	8f/	4F\	prop-	4f\	p(ro)p-	4f\	p(ro)p-	4ff\	prop-	.	.	.	.	4F\	4f/	4ff\	4ff\	.
8F'>\	.	.	8f\	8f/	8f/	.	.	.	.	.	.	.	.	.	.	.	.	.	.	.	.	.
8D'>\	.	.	8d\	8d/	8d/	4D\	-ter	4d\	-ter	4d\	-ter	4dd\	-ter	.	.	.	.	4D\	4d/	4dd\	4dd\	.
8D'>\J	.	.	8d\J	8d/J	8d/J	.	.	.	.	.	.	.	.	.	.	.	.	.	.	.	.	.
!LO:LB:g=original	!	!	!	!LO:LB:g=original	!LO:LB:g=original	!	!	!	!	!	!	!	!	!	!	!	!	!	!	!	!	!
=51	=51	=51	=51	=51	=51	=51	=51	=51	=51	=51	=51	=51	=51	=51-	=51	=51-	=51-	=51	=51	=51	=51	=51
!	!	!	!	!	!	!LO:TX:t=P:problem=brak fragmentu tekstu	!	!	!	!	!	!	!	!	!	!	!	!	!	!	!	!
8F'>\L	.	2.r	8f\L	8f/L	8f/L	4F\	.	4f\	nos-	4f\	nos-	4ff\	no-	.	2.ryy	.	.	4F\	4f/	4ff\	4ff\	.
8F'>\	.	.	8f\	8f/	8f/	.	.	.	.	.	.	.	.	.	.	.	.	.	.	.	.	.
8D'>\	.	.	8d\	8d/	8d/	4D\	.	4d\	-tram	4d\	-tram	4dd\	-stram	.	.	.	.	4D\	4d/	4dd\	4dd\	.
8D'>\	.	.	8d\	8d/	8d/	.	.	.	.	.	.	.	.	.	.	.	.	.	.	.	.	.
8BB-'>\	.	.	8B-\	8B-/	8B-/	4BB-/	.	4B-\	[sa]-	4B-\	sa-	4b-\	sa-	.	.	.	.	4BB-/	4B-/	4b-\	4b-\	.
8BB-'>\J	.	.	8B-\J	8B-/J	8B-/J	.	.	.	.	.	.	.	.	.	.	.	.	.	.	.	.	.
!	!	!	!LO:LB:g=original	!	!	!	!	!LO:LB:g=original	!	!	!	!	!	!	!	!	!LO:LB:g=original	!	!	!	!	!
=52	=52	=52	=52	=52	=52	=52	=52	=52	=52	=52	=52	=52	=52	=52	=52	=52	=52	=52	=52	=52	=52	=52
4F\	7 X	2.r	4F/	4f/	4f/	4F\	.	4A\	-lu-	4e-\	-lu-	4cc\	-lu-	4r	2.ryy	4f/	4cc\	4F\	4f/	4ee-\	4ee-\	.
4F\	.	.	4f\	4f/ 4cc/	4f\ 4ee-\	4F\	.	4A\	-tem	4e-\	-tem	4cc\	-t(em)	4FF/	.	4f/	4cc\	4e-\	4cc\	4ee-\	4eee-\	.
4F\	.	.	4f\	4f/ 4cc/	4f\ 4ee-\	4F\	-de-	4A\	de-	4e-\	de-	4cc\	de-	4FF/	.	4f/	4cc\	4e-\	4cc\	4ee-\	4eee-\	.
=53	=53	=53	=53	=53	=53	=53	=53	=53	=53	=53	=53	=53	=53	=53	=53	=53	=53	=53	=53	=53	=53	=53
4F\	7 X	2.r	4F/	4f/ 4cc/	4f\ 4ee-\	4F\	-scen-	4A\	-scen-	4e-\	-scen-	4cc\	-scen-	4r	2.ryy	4f/	4cc\	4e-\	4cc\	4ee-\	4eee-\	.
4F\	.	.	4f\	4f/ 4cc/	4cc\ 4aa\	4F\	-dit	4A\	-dit	4e-\	-dit	4cc\	-dit	4FF/	.	4f/	4cc\	4e-\	4cc\	4ee-\	4eee-\	.
4F\	.	.	4f\	4f/ 4cc/	4cc\ 4aa\	4F\	de	4A\	de	4e-\	de	4cc\	de	4FF/	.	4f/	4cc\	4e-\	4cc\	4ee-\	4eee-\	.
!	!	!	!	!	!	!	!	!	!	!	!	!	!	!	!	!LO:LB:g=original	!	!	!	!	!	!
=54	=54	=54	=54	=54	=54	=54	=54	=54	=54	=54	=54	=54	=54	=54	=54	=54	=54	=54	=54	=54	=54	=54
!	!	!	!	!	!	!	!	!	!LO:MO:P=cae-	!	!	!	!	!	!	!	!	!	!	!	!	!
4B-\	X 3	2.r	4B-/ 4f/	4B-/ 4f/ 4dd/	4f\ 4dd\ 4bb-\	4B-\	Cae-	4B-\	cee-	4f\	cae-	4dd\	cae-	4BB-/	2.ryy	4d/	4b-\	4d\	4b-\	4dd\	4ddd\	.
4BB-/	9 5 3	.	4B-/ 4f/	4B-/ 4f/ 4dd/	4f\ 4dd\ 4bb-\	4B-\	-lis.	4B-\	-lis	4f\	-lis.	4dd\	-lis	4BB-/	.	4d/	4b-\	4d\	4b-\	4dd\	4ddd\	.
4BB-/	8 5 3	.	4B-/ 4f/	4B-/ 4f/ 4dd/	4f\ 4dd\ 4bb-\	4r	.	4r	.	4r	.	4r	.	4BB-/	.	4d/	4b-\	4d\	4b-\	4dd\	4ddd\	.
!	!	!	!	!	!	!	!	!	!	!	!	!	!	!	!	!	!	!	!LO:LB:g=original	!	!	!
=55	=55	=55	=55	=55	=55	=55	=55	=55	=55	=55	=55	=55	=55	=55	=55	=55	=55	=55	=55	=55	=55	=55
!	!	!	!	!	!	!	!	!LO:TX:b:t=Verte Subito	!	!	!	!	!	!	!	!	!	!	!	!	!	!
!	!	!	!	!	!	!LO:TX:a:t=1.	!	!LO:TX:a:t=1	!	!LO:TX:b:t=1.	!	!LO:TX:a:t=1.	!	!	!	!	!	!	!	!	!	!
2BB-/	8 5 3	2.r	2B-/ 2f/	2B-/ 2f/ 2dd/	2f\ 2dd\ 2bb-\	2.r	.	2.r	.	2.r	.	2.r	.	2BB-/	2.ryy	2d/	2b-\	2d\	2b-\	2dd\	2ddd\	.
4r	.	.	4r	4r	4r	.	.	.	.	.	.	.	.	4r	.	4r	4r	4r	4r	4r	4r	.
==;;	==	==	==	==;>	==	==	==	==	==	==	==	==;>	==	==	==	==;>	==	==;>	==;>	==	==	==
*-	*-	*-	*-	*-	*-	*-	*-	*-	*-	*-	*-	*-	*-	*-	*-	*-	*-	*-	*-	*-	*-	*-
!!!system-decoration: [(g1)][(g2)][(g3)][(g4)][(g5)][(g6)]
!!!RDF**kern: > = above
!!!RDF**kern: < = below
!!!ENC: Berenika Jozajtis
!!!END: 2020-10-14
!!!EED: Jędrzej Mróz
!!!EEV: 2022-01-19
